!!!!SEGMENT: pl-gd--ms-joh-406--007-002_pekiel-bartlomiej--missa-a-15-kyrie.krn
!!!cenid: 16xx:1761
!!!COM: Pękiel, Bartłomiej
!!!COM-rismID: pe30105642
!!!CDT: <1633-~1670
!!!CNT: Polish
!!!OPR: Missa a 15
!!!OTL: Kyrie
!!!OMV: 002
!!!PDT: 1689
!!!AGN:
!!!SMS-siglum: PL-GD
!!!SMS-shelfmark: Ms Joh.406
!!!SMS-shelfwork: 007-002 M
!!!SMS-variant: Basso Continuo Pro Organo PL-GD Ms Joh.406: 113,114
!!!SMS-altvar: Basso Continuo Pro Organo PL-GD Ms Joh.406: 117, 135
!!!NIFC-rismSourceID: 305000447
!!!NIFC-rismChildID: 305000454
!!!NIFC-islandoraID: pl-gd:36565
!!!URL-pdf-islandora: https://repozytorium.nifc.pl/islandora/object/pl-gd:36565/datastream/PDF/view
!!!URL-scan: https://polish.musicsources.pl/pl/lokalizacje/galeria/rekopisy/5611 @EN{Scan on Polish Music Sources Website} @PL{Skany w portalu Dziedzictwo Muzyki Polskiej w otwartym dostępie}
!!!ONB-nifc: UWAGA: części Mszy: 1. Sinfonia, 2. Kyrie, 3. Et in terra pax. Partie: tyt. - 111, Basso Continuo Pro Organo (x2) - 113-114 i 117 (lewa), Soprano Chori 1 – 117-118, Alto Chori 1 – 118-119, Tenori Chori 1 – 119-120, Basso Chori 1 – 120-121, Soprano Chor. 2 – 121-122, Alto Chori 2 – 122-123, Tenore Chor: 2 – 123-124, Basso Chor: 2 – 124-125, Violino 1 – 125-126, Violino 2 – 126-127, Violetta 1 – 127-128, Violetta 2 – 128-129, Cornettino 1mo ad placitum – 129-130, Cornettino 2do – 130-131, Viola Bassa – 131-132, Basso Continuo, Bombardo e Fagotto – 132-133, Basso Continuo Pro, Directore - 139 (na 133 powtórzenie tej strony), pro Organo - 135 (prawa str na 136 to powtórzenie str 135)
!!!AIN: 2 alto 2 bass 2 corno 1 fagot 2 organ 2 soprn 2 tenor 2 viola 1 violb 2 violn
!!!key: C
**kern	**fba	**kern	**fba	**kern	**kern	**kern	**kern	**kern	**kern	**text	**kern	**text	**kern	**text	**kern	**text	**kern	**text	**kern	**text	**kern	**text	**kern	**text	**kern	**kern	**kern
*part18	*part18	*part17	*part18	*part16	*part15	*part14	*part13	*part12	*part11	*part11	*part10	*part10	*part9	*part9	*part8	*part8	*part7	*part7	*part6	*part6	*part5	*part5	*part4	*part4	*part3	*part2	*part1
*staff18	*staff18	*staff17	*staff18	*staff16	*staff15	*staff14	*staff13	*staff12	*staff11	*staff11	*staff10	*staff10	*staff9	*staff9	*staff8	*staff8	*staff7	*staff7	*staff6	*staff6	*staff5	*staff5	*staff4	*staff4	*staff3	*staff2	*staff1
*I"Pro Directore Basso Continuo	*	*I"Basso Continuo Pro Organo	*	*I"Viola Bassa.	*I"Violetta 2.	*I"Violetta 1.	*I"Violino 2.	*I"Violino 1.	*I"Basso Chori 2.	*	*I"Tenore Chor: 2.	*	*I"Alto Chori 2.	*	*I"Soprano Chor. 2.	*	*I"Basso Chori 1.	*	*I"Tenore Chori 1.	*	*I"Alto Chori. 1.	*	*I"Soprano Chori 1.	*	*I"Bombardo e Fagotto.	*I"Cornettino 2do.	*I"Cornettino 1mo. ad placitum.
*I'bc dir	*	*I'bc org	*	*I'vla b	*I'Vla 2	*I'Vla 1	*I'Vl 2	*I'Vl 1	*I'B ch 2	*	*I'T ch 2	*	*I'A ch 2	*	*I'S ch 2	*	*I'B ch 1	*	*I'T ch 1	*	*I'A ch 1	*	*I'S ch 1	*	*I'bombarde e fag	*I'cornettino 2	*I'cornettino 1
*Iorgan	*	*Iorgan	*	*Iviolb	*Iviola	*Iviola	*Ivioln	*Ivioln	*Ibass	*	*Itenor	*	*Ialto	*	*Isoprn	*	*Ibass	*	*Itenor	*	*Ialto	*	*Isoprn	*	*Ifagot	*Icorno	*Icorno
*ICklav	*	*ICklav	*	*ICstr	*ICstr	*ICstr	*ICstr	*ICstr	*ICvox	*	*ICvox	*	*ICvox	*	*ICvox	*	*ICvox	*	*ICvox	*	*ICvox	*	*ICvox	*	*ICww	*ICbrass	*ICbrass
*clefF4	*	*clefF4	*	*clefF4	*clefC4	*clefC3	*clefC1	*clefC1	*clefF4	*	*clefC4	*	*clefC3	*	*clefC1	*	*clefF4	*	*clefC4	*	*clefC3	*	*clefC1	*	*clefF4	*clefC1	*clefC1
*k[]	*	*k[]	*	*k[]	*k[]	*k[]	*k[]	*k[]	*k[]	*	*k[]	*	*k[]	*	*k[]	*	*k[]	*	*k[]	*	*k[]	*	*k[]	*	*k[]	*k[]	*k[]
*C:	*	*C:	*	*C:	*C:	*C:	*C:	*C:	*C:	*	*C:	*	*C:	*	*C:	*	*C:	*	*C:	*	*C:	*	*C:	*	*C:	*C:	*C:
*M2/1	*	*M2/1	*	*M2/1	*M2/1	*M2/1	*M2/1	*M2/1	*M2/1	*	*M2/1	*	*M2/1	*	*M2/1	*	*M2/1	*	*M2/1	*	*M2/1	*	*M2/1	*	*M2/1	*M2/1	*M2/1
*met(c|)	*	*met(c|)	*	*met(c)	*met(c)	*met(c)	*met(c)	*met(c)	*met(c)	*	*met(c)	*	*met(c)	*	*met(c)	*	*met(c)	*	*met(c)	*	*met(c)	*	*met(c)	*	*met(c)	*met(c)	*met(c)
=1-	=1-	=1-	=1-	=1-	=1-	=1-	=1-	=1-	=1-	=1-	=1-	=1-	=1-	=1-	=1-	=1-	=1-	=1-	=1-	=1-	=1-	=1-	=1-	=1-	=1-	=1-	=1-
!	!	!	!	!	!	!	!	!	!	!	!	!	!	!	!	!	!	!	!	!	!	!	!	!	!	!	!LO:TX:t=P:problem:tu jest błąd - ktoś wpisał 5 "taktów" pauzy zamiast dwóch
!LO:TX:b:t=Kyrie	!	!LO:TX:b:t=Kyrie	!	!LO:TX:a:t=2	!LO:TX:a:t=2	!LO:TX:a:t=2	!LO:TX:a:t=2	!LO:TX:a:t=2	!	!	!	!	!	!	!	!	!LO:TX:a:t=2	!	!LO:TX:a:t=2	!	!LO:TX:a:t=2	!	!LO:TX:a:t=2	!	!	!LO:TX:a:t=2	!LO:TX:a:t=5
!	!	!	!	!LO:SIC:v:t=custos b	!	!	!	!	!	!	!	!	!	!	!	!	!	!	!	!	!	!	!	!	!	!	!
!	!	!	!	!	!LO:TX:b:t=Kyrie	!LO:TX:b:t=Kyrie	!LO:TX:b:t=Kyrie	!LO:TX:b:t=Kyrie	!	!	!	!	!	!	!	!	!	!	!	!	!	!	!	!	!	!	!
!	!	!	!	!	!	!	!	!	!	!	!	!	!	!	!	!	!	!	!	!	!	!	!	!	!LO:TX:b:t=Kyrie	!LO:TX:b:t=Kyrie	!LO:TX:b:t=Kyrie
4.D/	-	4.D/	.	0r	0r	0r	0r	0r	4.D/	Ky-	2r	.	4.f\	Ky-	4.a\	Ky-	0r	.	0r	.	0r	.	0r	.	4.D/	0r	00r
8E\	.	8E\	.	.	.	.	.	.	8E\	-ri-	.	.	8e\	-ri-	8g\	-ri-	.	.	.	.	.	.	.	.	8E\	.	.
8F\L	6	8F\L	6	.	.	.	.	.	8F\	-e	4r	.	8d\	-e	4f/	-e	.	.	.	.	.	.	.	.	8F\L	.	.
8D\J	.	8D\J	4:3 #	.	.	.	.	.	8D/	e-	.	.	8d\	e-	.	.	.	.	.	.	.	.	.	.	8D\J	.	.
!LO:TX:t=P:problem:kreska pseudotaktowa	!	!LO:TX:t=P:problem:kreska pseudotaktowa	!	!	!	!	!	!	!LO:TX:t=P:problem:kreska pseudotaktowa	!	!	!	!	!	!	!	!	!	!	!	!	!	!	!	!LO:TX:t=P:problem:kreska pseudotaktowa	!	!
4A\	-	4A\	.	.	.	.	.	.	4A\	-lei-	8.A/	Ky-	8.d\	-lei-	8e/	/Ky-	.	.	.	.	.	.	.	.	4A\	.	.
!	!	!	!	!	!	!	!	!	!	!	!	!	!	!	!LO:TX:t=P:problem:kreska pseudotaktowa	!	!	!	!	!	!	!	!	!	!	!	!
.	.	.	.	.	.	.	.	.	.	.	.	.	.	.	8e/	-ri-	.	.	.	.	.	.	.	.	.	.	.
!	!	!	!	!	!	!	!	!	!	!	!LO:TX:t=P:problem:kreska pseudotaktowa	!	!LO:TX:t=P:problem:kreska pseudotaktowa	!	!	!	!	!	!	!	!	!	!	!	!	!	!
.	.	.	.	.	.	.	.	.	.	.	16G/	-ri-	16c#X/	.	.	.	.	.	.	.	.	.	.	.	.	.	.
!	!	!LO:TX:t=P:problem:kreska pseudotaktowa	!	!	!	!	!	!	!	!	!	!	!	!	!	!	!	!	!	!	!	!	!	!	!	!	!
4D/	-	4D/	.	.	.	.	.	.	2D/	-ſon.	(8F/L	-e	4d\	-ſon	4d/	-e/	.	.	.	.	.	.	.	.	4D/	.	.
.	.	.	.	.	.	.	.	.	.	.	8D/J)	.	.	.	.	.	.	.	.	.	.	.	.	.	.	.	.
*clefC4	*	*clefC4	*	*	*	*	*	*	*	*	*	*	*	*	*	*	*	*	*	*	*	*	*	*	*clefC4	*	*
4d\	-	4d\	.	.	.	.	.	.	.	.	8.d\	Ky-	8.f\	Ky-	8.a\	Ky-	.	.	.	.	.	.	.	.	4d\	.	.
.	.	.	.	.	.	.	.	.	.	.	16d\	-ri-	16g\	-ri-	16b\	-ri-	.	.	.	.	.	.	.	.	.	.	.
!	!	!	!	!	!	!	!	!	!LO:TX:t=P:problem:kreska pseudotaktowa	!	!	!	!	!	!	!	!	!	!	!	!	!	!	!	!	!	!
4c/	6	4c\	6	.	.	.	.	.	2r	.	4c\	-e	4.a\	-e	8cc\L	-e	.	.	.	.	.	.	.	.	4c\	.	.
.	.	.	.	.	.	.	.	.	.	.	.	.	.	.	8a\J	.	.	.	.	.	.	.	.	.	.	.	.
!LO:TX:t=P:problem:kreska pseudotaktowa	!	!LO:TX:t=P:problem:kreska pseudotaktowa	!	!	!	!	!	!	!	!	!LO:TX:t=P:problem:kreska pseudotaktowa	!	!	!	!	!	!	!	!	!	!	!	!	!	!LO:TX:t=P:problem:kreska pseudotaktowa	!	!
4B/	7:6	4B\	7:6	.	.	.	.	.	.	.	4B\	e-	.	.	16dd\LL	.	.	.	.	.	.	.	.	.	4B\	.	.
.	.	.	.	.	.	.	.	.	.	.	.	.	.	.	16b\	.	.	.	.	.	.	.	.	.	.	.	.
!	!	!	!	!	!	!	!	!	!	!	!	!	!LO:TX:t=P:problem:kreska pseudotaktowa	!	!	!	!	!	!	!	!	!	!	!	!	!	!
.	.	.	.	.	.	.	.	.	.	.	.	.	8g#X\	lei-	16cc\	.	.	.	.	.	.	.	.	.	.	.	.
!	!	!	!	!	!	!	!	!	!	!	!	!	!	!	!LO:TX:t=P:problem:kreska pseudotaktowa	!	!	!	!	!	!	!	!	!	!	!	!
.	.	.	.	.	.	.	.	.	.	.	.	.	.	.	16dd\JJ	.	.	.	.	.	.	.	.	.	.	.	.
=2-	=2-	=2-	=2-	=2-	=2-	=2-	=2-	=2-	=2-	=2-	=2-	=2-	=2-	=2-	=2-	=2-	=2-	=2-	=2-	=2-	=2-	=2-	=2-	=2-	=2-	=2-	=2-
!LO:TX:t=P:problem:przesunięcie spowodowane Cornettino 1mo	!	!LO:TX:t=P:problem:przesunięcie spowodowane Cornettino 1mo	!	!LO:TX:t=P:problem:przesunięcie spowodowane Cornettino 1mo	!LO:TX:t=P:problem:przesunięcie spowodowane Cornettino 1mo	!LO:TX:t=P:problem:przesunięcie spowodowane Cornettino 1mo	!LO:TX:t=P:problem:przesunięcie spowodowane Cornettino 1mo	!LO:TX:t=P:problem:przesunięcie spowodowane Cornettino 1mo	!LO:TX:t=P:problem:przesunięcie spowodowane Cornettino 1mo	!	!LO:TX:t=P:problem:przesunięcie spowodowane Cornettino 1mo	!	!LO:TX:t=P:problem:przesunięcie spowodowane Cornettino 1mo	!	!LO:TX:t=P:problem:przesunięcie spowodowane Cornettino 1mo	!	!LO:TX:t=P:problem:przesunięcie spowodowane Cornettino 1mo	!	!LO:TX:t=P:problem:przesunięcie spowodowane Cornettino 1mo	!	!LO:TX:t=P:problem:przesunięcie spowodowane Cornettino 1mo	!	!LO:TX:t=P:problem:przesunięcie spowodowane Cornettino 1mo	!	!LO:TX:t=P:problem:przesunięcie spowodowane Cornettino 1mo	!LO:TX:t=P:problem:przesunięcie spowodowane Cornettino 1mo	!
0ryy	.	0ryy	.	0ryy	0ryy	0ryy	0ryy	0ryy	0ryy	.	0ryy	.	0ryy	.	0ryy	.	0ryy	.	0ryy	.	0ryy	.	0ryy	.	0ryy	0ryy	.
=3-	=3-	=3-	=3-	=3-	=3-	=3-	=3-	=3-	=3-	=3-	=3-	=3-	=3-	=3-	=3-	=3-	=3-	=3-	=3-	=3-	=3-	=3-	=3-	=3-	=3-	=3-	=3-
1ryy	.	1ryy	.	1ryy	1ryy	1ryy	1ryy	1ryy	1ryy	.	1ryy	.	1ryy	.	1ryy	.	1ryy	.	1ryy	.	1ryy	.	1ryy	.	1ryy	1ryy	1r
4A/	-	4A/	-	4r	2.A/	8a\L	4r	4r	4r	.	2.A/	-lei-	2a\	-ſon	2.cc\	e-	4r	.	4r	.	8a\	Ky-	4r	.	4A/	4r	4r
.	.	.	.	.	.	16g\L	.	.	.	.	.	.	.	.	.	.	.	.	.	.	16g\	-ri-	.	.	.	.	.
.	.	.	.	.	.	16f\JJ	.	.	.	.	.	.	.	.	.	.	.	.	.	.	16f\	-e	.	.	.	.	.
*clefF4	*	*clefF4	*	*	*	*	*	*	*	*	*	*	*	*	*	*	*	*	*	*	*	*	*	*	*clefF4	*	*
!LO:TX:b:t=tuti	!	!	!	!	!	!	!	!	!	!	!	!	!	!	!	!	!	!	!	!	!	!	!	!	!	!	!
*	*	*	*	*	*	*	*	*	*	*ij	*	*	*	*	*	*	*	*	*	*	*	*	*	*	*	*	*
!	!	!	!	!	!	!	!	!	!	!	!	!	!	!	!	!	!	!	!	!	!	!	!	!	!LO:TX:b:t=tutti	!	!
8AA/L	.	8AA/L	.	4.A\	.	4e\	8ee\L	4.cc\	4.A\	Ky-	.	.	.	.	.	.	8.AA/	Ky-	8c\	Ky-	8.e\	e-	8.ee\	Ky-	8AA/L	8ee\L	4.cc\
8BB/J	.	8BB/J	.	.	.	.	8dd\J	.	.	.	.	.	.	.	.	.	.	.	8B\	-ri-	.	.	.	.	8BB/J	8dd\J	.
.	.	.	.	.	.	.	.	.	.	.	.	.	.	.	.	.	16BB/	-ri-	.	.	16e\	-lei-	16dd\	-ri-	.	.	.
!	!	!	!	!	!	!LO:TX:t=P:problem:kreska pseudotaktowa	!	!	!	!	!	!	!	!	!	!	!	!	!	!	!LO:TX:t=P:problem:kreska pseudotaktowa	!	!	!	!	!	!
8C/L	6	8C/L	6	.	.	2e\	4cc\	.	.	.	.	.	8a\	Ky-	.	.	8C/	-e	8.A/	-e	2e\	-ſon	4cc\	-e	8C/L	4cc\	.
8AA/J	.	8AA/J	.	8A\	.	.	.	8cc\	16A\	-ri-	.	.	16cny/	-ri-	.	.	8AA/	e-	.	.	.	.	.	.	8AA/J	.	8cc\
.	.	.	.	.	.	.	.	.	16A\	-e	.	.	16d\	-e	.	.	.	.	16A/	e-	.	.	.	.	.	.	.
!LO:TX:t=P:problem:kreska pseudotaktowa	!	!LO:TX:t=P:problem:kreska pseudotaktowa	!	!LO:TX:t=P:problem:kreska pseudotaktowa	!LO:TX:t=P:problem:kreska pseudotaktowa	!	!LO:TX:t=P:problem:kreska pseudotaktowa	!LO:TX:t=P:problem:kreska pseudotaktowa	!	!	!LO:TX:t=P:problem:kreska pseudotaktowa	!	!	!	!LO:TX:t=P:problem:kreska pseudotaktowa	!	!LO:TX:t=P:problem:kreska pseudotaktowa	!	!LO:TX:t=P:problem:kreska pseudotaktowa	!	!	!	!	!	!LO:TX:t=P:problem:kreska pseudotaktowa	!LO:TX:t=P:problem:kreska pseudotaktowa	!LO:TX:t=P:problem:kreska pseudotaktowa
4E\	#	4E\	#	4E\LJ	4B\	.	4b\	4ee\	8.E\	e-	4B\	.	8.e\	e-	4ee\	-lei-	4E\	-lei-	4G#X/	-lei-	.	.	8.b\	Ky-	4E\	4b\	4ee\
!	!	!	!	!	!	!	!	!	!LO:TX:t=P:problem:kreska pseudotaktowa	!	!	!	!LO:TX:t=P:problem:kreska pseudotaktowa	!	!	!	!	!	!	!	!	!	!LO:TX:t=P:problem:kreska pseudotaktowa	!	!	!	!
.	.	.	.	.	.	.	.	.	16E\	-lei-	.	.	16e\	-lei-	.	.	.	.	.	.	.	.	16b\	-ri-	.	.	.
!LO:LB:g=original	!	!LO:LB:g=original	!	!	!	!	!	!	!	!	!	!	!	!	!	!	!	!	!	!	!	!	!	!	!	!	!
=4-	=4-	=4-	=4-	=4-	=4-	=4-	=4-	=4-	=4-	=4-	=4-	=4-	=4-	=4-	=4-	=4-	=4-	=4-	=4-	=4-	=4-	=4-	=4-	=4-	=4-	=4-	=4-
2AA/	-	2AA/	-	2A\	2A/	2e\	4cc\	2ee\	2A\	-son	2A/	-ſon	2c/	-ſon	2ee\	-ſon	2AA/	-son	4A/	-ſon	4e\	Ky-	4cc\	-e	2AA/	4cc\	2ee\
*	*	*	*	*	*	*	*	*	*	*Xij	*	*	*	*	*	*	*	*	*	*	*	*	*	*	*	*	*
.	.	.	.	.	.	.	4r	.	.	.	.	.	.	.	.	.	.	.	(16A\LL	Ky-	8e\	-ri-	(16cc\LL	e-	.	4r	.
!	!	!	!	!	!	!	!LO:LB:g=original	!	!	!	!	!	!	!	!	!	!	!	!	!	!	!	!	!	!	!	!
.	.	.	.	.	.	.	.	.	.	.	.	.	.	.	.	.	.	.	16B-X\JJ)	.	.	.	16dd\JJ)	.	.	.	.
.	.	.	.	.	.	.	.	.	.	.	.	.	.	.	.	.	.	.	(16A/LL	-ri-	8e\	-e	(16cc\LL	.	.	.	.
.	.	.	.	.	.	.	.	.	.	.	.	.	.	.	.	.	.	.	16G#X/JJ)	.	.	.	16b-X\JJ)	.	.	.	.
!LO:TX:t=P:problem:kreska pseudotaktowa	!	!LO:TX:t=P:problem:kreska pseudotaktowa	!	!	!	!	!	!	!	!	!	!	!	!	!	!	!	!	!	!	!	!	!	!	!LO:TX:t=P:problem:kreska pseudotaktowa	!	!
*	*	*	*	*	*	*	*	*	*	*	*	*	*	*	*	*	*	*	*	*	*	*ij	*	*	*	*	*
2FF/	.	2FF/	.	4r	4r	4r	4r	4r	4r	.	4r	.	4r	.	4r	.	4r	.	(16F/LL	-e	4.f\	Ky-	16a\LL	.	2FF/	4r	4r
.	.	.	.	.	.	.	.	.	.	.	.	.	.	.	.	.	.	.	16E/	.	.	.	16g\	.	.	.	.
.	.	.	.	.	.	.	.	.	.	.	.	.	.	.	.	.	.	.	16F/	.	.	.	16a\	.	.	.	.
.	.	.	.	.	.	.	.	.	.	.	.	.	.	.	.	.	.	.	16G#/JJ)	.	.	.	16b-X\JJ	.	.	.	.
!	!	!	!	!LO:TX:t=P:problem:mixed beam	!	!	!	!	!	!	!	!	!	!	!	!	!	!	!LO:TX:t=P:problem:kreska pseudotaktowa	!	!	!	!	!	!	!	!
.	.	.	.	8F\L	8f\LL	8f\L	8a\LL	8.a\LL	8.F\	Ky-	8.f\	Ky-	8.f\	Ky-	8.a\	Ky-	8.FF/	Ky-	4A/	.	.	.	16cc\LL	.	.	8a\L	8.a\L
.	.	.	.	.	.	.	.	.	.	.	.	.	.	.	.	.	.	.	.	.	.	.	16b-X\	.	.	.	.
!	!	!	!	!	!	!	!	!	!	!	!	!	!	!	!	!	!	!	!	!	!	!	!	!	!	!LO:TX:t=P:problem:kreska pseudotaktowa	!
!	!	!	!	!LO:TX:t=P:problem:kreska pseudotaktowa	!LO:TX:t=P:problem:kreska pseudotaktowa	!LO:TX:t=P:problem:kreska pseudotaktowa	!LO:TX:t=P:problem:kreska pseudotaktowa	!	!	!	!	!	!	!	!	!	!	!	!	!	!LO:TX:t=P:problem:kreska pseudotaktowa	!	!	!	!	!	!
!	!	!	!	!	!	!	!	!	!	!	!	!	!	!	!	!	!	!	!	!	!	!	!	!	!	!LO:SIC:v:t=custos b	!
!	!	!	!	!	!	!	!	!	!	!	!	!	!	!	!	!	!	!	!	!	!	!	!	!	!	!LO:LB:g=original	!
.	.	.	.	8FF/J	8e\JJ	8e\J	8cc\JJ	.	.	.	.	.	.	.	.	.	.	.	.	.	8e\L	-ri-	16cc\	.	.	8b\	.
!	!	!LO:TX:b:t=tuti	!	!	!	!	!	!LO:TX:t=P:problem:kreska pseudotaktowa	!LO:TX:t=P:problem:kreska pseudotaktowa	!	!LO:TX:t=P:problem:kreska pseudotaktowa	!	!LO:TX:t=P:problem:kreska pseudotaktowa	!	!LO:TX:t=P:problem:kreska pseudotaktowa	!	!LO:TX:t=P:problem:kreska pseudotaktowa	!	!	!	!	!	!LO:TX:t=P:problem:kreska pseudotaktowa	!	!	!	!LO:TX:t=P:problem:kreska pseudotaktowa
.	.	.	.	.	.	.	.	16cc\JJ	16FF/	-ri-	16f\	-ri-	16a\	-ri-	16cc\	-ri-	16FF/	-ri-	.	.	.	.	16dd\J	.	.	.	16cc\K
!	!	!	!	!	!	!	!	!LO:LB:g=original	!	!	!	!	!	!	!	!	!	!	!	!	!	!	!	!	!	!	!
8GG/L	-	8GG/L	-	8GG/L	8d\LL	8d\	8b-X\LL	8b-X\L	(8GG/L	-e	(8d\L	-e	8gny\	-e	(8b-X\L	-e	8GG/	-e	(8B-\L	e-	8d\J	-e	8b-\	-lei-	8GG/L	8b-X\	8b-X\
*	*	*	*	*	*	*	*	*	*	*	*	*	*	*	*	*	*	*	*	*	*	*Xij	*	*	*	*	*
8AA/	6	8AA/	6	8AA/	8c\	4f\	8a\	8a\	8AA/J)	e-	8c\J)	e-	4f\	Ky-	8a\J)	.	8AA/	e-	8c\J)	.	4f\	e-	8a\J	.	8AA/	8a\	8a\
8BB-X/	6 5	8BB-X/	6 5	8BB/	8d\	.	8g\	8g\	(8BB-X/L	-lei-	(8d\L	-lei-	.	.	8.g/	Ky-	(8BB-X/	-lei-	8d\	-lei-	.	.	4g/	-ſon,	8BB/	8g\	8g\
8C/J	.	8C/J	.	8C-X/J	8c\JJ	8e\	8a\JJ	8g\J	8C/J)	.	8c\J)	.	8e\	-ri-	.	.	8C/)	.	8c\	-ſon	8e\	-lei-	.	.	8C/J	8a\J	8g\J
.	.	.	.	.	.	.	.	.	.	.	.	.	.	.	16g/	-ri-	.	.	.	.	.	.	.	.	.	.	.
!LO:SIC:v:t=custos F	!	!LO:SIC:v:t=custos F	!	!	!	!	!	!	!	!	!	!	!	!	!	!	!	!	!	!	!	!	!	!	!	!	!
4F\	#	4F\	#	4FF/	4c\	4f\	4a\	4a\	4F\	-son	4c\	-ſon	4f\	-e	4a\	-e	4FF/	-son	4c\	.	4f\	-ſon	4a\	.	4F\	4a\	4a\
!LO:TX:t=P:problem:kreska pseudotaktowa	!	!LO:TX:t=P:problem:kreska pseudotaktowa	!	!	!LO:TX:t=P:problem:kreska pseudotaktowa	!LO:TX:t=P:problem:kreska pseudotaktowa	!	!	!	!	!	!	!	!	!	!	!	!	!	!	!LO:TX:t=P:problem:kreska pseudotaktowa	!	!	!	!LO:TX:t=P:problem:kreska pseudotaktowa	!	!
*	*	*	*	*	*	*	*	*	*	*	*	*ij	*	*	*	*	*	*	*	*	*	*	*	*	*	*	*
!	!	!	!	!	!	!	!	!	!	!	!	!	!LO:SIC:v:t=custos e	!	!	!	!	!	!	!	!	!	!	!	!	!	!
!	!	!	!	!	!	!	!	!	!	!	!	!	!LO:LB:g=original	!	!	!	!	!	!	!	!	!	!	!	!	!	!
4C#X/	.	4C#X/	.	8.C#X/L	4e\	4.e\	8.a\L	8.a\L	8.C#X/	Ky-	8.e\	Ky-	(4e\	Ky-	8.a\	Ky-	8.C#X/	Ky-	8.e\	Ky-	4.e\	Ky-	8.a\	Ky-	4C#X/	8.a\L	8.a\L
!	!	!	!	!LO:TX:t=P:problem:kreska pseudotaktowa	!	!	!LO:TX:t=P:problem:kreska pseudotaktowa	!LO:TX:t=P:problem:kreska pseudotaktowa	!LO:TX:t=P:problem:kreska pseudotaktowa	!	!LO:TX:t=P:problem:kreska pseudotaktowa	!	!	!	!LO:TX:t=P:problem:kreska pseudotaktowa	!	!LO:TX:t=P:problem:kreska pseudotaktowa	!	!LO:TX:t=P:problem:kreska pseudotaktowa	!	!	!	!LO:TX:t=P:problem:kreska pseudotaktowa	!	!	!LO:TX:t=P:problem:kreska pseudotaktowa	!LO:TX:t=P:problem:kreska pseudotaktowa
.	.	.	.	16C#X/Jk	.	.	16g\Jk	16g\Jk	16C#/	-ri-	16e\	-ri-	.	.	16g/	-ri-	16C#/	-ri-	16e\	-ri-	.	.	16g/	-ri-	.	16g\Jk	16g\Jk
!	!	!	!	!	!	!	!	!	!	!	!	!	!	!	!LO:LB:g=original	!	!	!	!	!	!	!	!	!	!	!	!
=5-	=5-	=5-	=5-	=5-	=5-	=5-	=5-	=5-	=5-	=5-	=5-	=5-	=5-	=5-	=5-	=5-	=5-	=5-	=5-	=5-	=5-	=5-	=5-	=5-	=5-	=5-	=5-
8D/L	-:7	8D/L	-:7	8D/L	4A/	.	4.f/	4.f/	8D/L	-e	4A/	-e	8d\)	.	4f/	-e	(8D/L	-e	4A/	-e	.	.	4f/	-e	8D/L	4.f/	4.f/
8C#Xny/	.	8C#X/	.	8C#X/	.	8d\J	.	.	8C#X/	.	.	.	8d\	-ri-	.	.	8C#X/J)	.	.	.	8d\J	-ri-	.	.	8C#X/	.	.
8BB-X/	.	8BB-X/	.	8BB-X/	2B-X\	2d\	.	.	8BB-X/	.	2B-X\	e-	8d\	-e	4ff\	e-	(8BB-X/L	e-	4B-X\	e-	4d\	-e	8.ff\	Ky-	8BB-X/	.	.
8AA/J	6	8AA/J	6	8AA/J	.	.	8f/	8ff\	8AA/J	.	.	.	8d\	e-	.	.	8AA/J)	.	.	.	.	.	.	.	8AA/J	8f/	8ff\
.	.	.	.	.	.	.	.	.	.	.	.	.	.	.	.	.	.	.	.	.	.	.	16ff\	-ri-	.	.	.
!	!	!	!	!	!	!	!LO:TX:t=P:problem:kreska pseudotaktowa	!	!	!	!	!	!	!	!LO:TX:t=P:problem:kreska pseudotaktowa	!	!	!	!	!	!	!	!LO:TX:t=P:problem:kreska pseudotaktowa	!	!	!LO:TX:t=P:problem:kreska pseudotaktowa	!
!	!	!	!	!	!	!	!	!	!LO:SIC:v:t=custos GG	!	!	!	!	!	!	!	!	!	!	!	!	!	!	!	!	!	!
!	!	!	!	!	!	!	!	!	!LO:LB:g=original	!	!	!	!	!	!	!	!	!	!	!	!	!	!LO:LB:g=original	!	!	!	!
!	!	!	!	!	!	!	!	!	!	!	!	!	!	!	!	!	!LO:SIC:v:t=custos GG	!	!	!	!	!	!	!	!LO:SIC:v:t=custos GG	!	!
!	!	!	!	!	!	!	!	!	!	!	!	!	!	!	!	!	!LO:LB:g=original	!	!	!	!	!	!	!	!LO:LB:g=original	!	!
4GG/	-	4GG/	.	4GG/	.	.	2e/	4.ee\	4GG/	lei-	.	.	(4.d\	-lei-	2ee\	-lei-	4GG/	-lei-	4.B-\	-le-	4.d\	Ky-	2ee\	-e	4GG/	2e/	4.ee\
!LO:TX:t=P:problem:kreska pseudotaktowa	!	!LO:TX:t=P:problem:kreska pseudotaktowa	!	!LO:TX:t=P:problem:kreska pseudotaktowa	!LO:TX:t=P:problem:kreska pseudotaktowa	!LO:TX:t=P:problem:kreska pseudotaktowa	!	!	!LO:TX:t=P:problem:kreska pseudotaktowa	!	!LO:TX:t=P:problem:kreska pseudotaktowa	!	!	!	!	!	!LO:TX:t=P:problem:kreska pseudotaktowa	!	!	!	!	!	!	!	!LO:TX:t=P:problem:kreska pseudotaktowa	!	!
4AA/	.	4AA/	.	4AA/	4A/	4c#X/	.	.	4AA/	-son	4A/	-lei-	.	.	.	.	4AA/	.	.	.	.	.	.	.	4AA/	.	.
!	!	!	!	!	!	!	!	!LO:TX:t=P:problem:kreska pseudotaktowa	!	!	!	!	!LO:TX:t=P:problem:kreska pseudotaktowa	!	!	!	!	!	!LO:TX:t=P:problem:kreska pseudotaktowa	!	!LO:TX:t=P:problem:kreska pseudotaktowa	!	!	!	!	!	!LO:TX:t=P:problem:kreska pseudotaktowa
.	.	.	.	.	.	.	.	8dd\	.	.	.	.	8c#X/)	.	.	.	.	.	8A/	.	8c#X/	-ri-	.	.	.	.	8dd\
!	!	!	!	!	!	!	!	!	!	!	!	!	!	!	!	!	!	!	!LO:LB:g=original	!	!	!	!	!	!	!	!
2.D/	-	2.D/	-	4D/	4A/	2.d\	4d/	4dd\	4D/	.	4A/	-son	4d\	-ſon	4dd\	-ſon,	4D/	-ſon	1A	-i-	4d\	-e	2.dd\	e-	2.D/	4d/	4dd\
*	*	*	*	*	*	*	*	*	*	*	*	*Xij	*	*	*	*	*	*	*	*	*	*	*	*	*	*	*
!	!	!	!	!	!	!	!	!	!	!	!	!	!	!	!	!	!	!	!	!	!LO:LB:g=original	!	!	!	!	!	!
.	.	.	.	2D/	8.d\L	.	2dd\	8.a\L	4.D/	Ky-	8d\	Ky-	8.f\	Ky-	8.a\	Ky-	8.D\	Ky-	.	.	4d\	ele-	.	.	.	2dd\	8.a\L
.	.	.	.	.	.	.	.	.	.	.	16c\	-ri-	.	.	.	.	.	.	.	.	.	.	.	.	.	.	.
.	.	.	.	.	32c\LL	.	.	16g\Jk	.	.	16Bny\	-e	16g\	-ri-	16g\	-ri-	16E\	-ri-	.	.	.	.	.	.	.	.	16g\Jk
!	!	!	!	!	!	!	!	!	!	!	!LO:LB:g=original	!	!	!	!	!	!	!	!	!	!	!	!	!	!	!	!
.	.	.	.	.	32Bny\JJJ	.	.	.	.	.	.	.	.	.	.	.	.	.	.	.	.	.	.	.	.	.	.
!	!	!	!	!	!LO:TX:t=P:problem:kreska pseudotaktowa	!	!	!LO:TX:t=P:problem:mixed beam	!	!	!LO:TX:t=P:problem:kreska pseudotaktowa	!	!	!	!	!	!	!	!	!	!	!	!	!	!	!	!LO:TX:t=P:problem:mixed beam
.	.	.	.	.	2A/	.	.	8f/L	.	.	2A\	lei-	4a\	-e	8f/	-e	8F\	-e	.	.	(4d\	-i-	.	.	.	.	8f/L
.	.	.	.	.	.	.	.	8ff\J	16D/	-ri-	.	.	.	.	8f/	e-	8D\	e-	.	.	.	.	.	.	.	.	8ff\J
.	.	.	.	.	.	.	.	.	16D/	-e	.	.	.	.	.	.	.	.	.	.	.	.	.	.	.	.	.
!	!	!	!	!LO:TX:t=P:problem:kreska pseudotaktowa	!	!	!	!	!	!	!	!	!	!	!	!	!LO:TX:t=P:problem:kreska pseudotaktowa	!	!	!	!	!	!	!	!	!	!
4AA/	.	4AA/	.	4AA/	.	8.e\L	4cc#X\	8.ee\L	8.AA/	e-	.	.	8A/	e-	8.e/	-le-	4A\	-lei-	.	.	4e\)	.	4cc#X\	-lei-	4AA/	4cc#X\	8.ee\L
.	.	.	.	.	.	.	.	.	.	.	.	.	8A/	-lei-	.	.	.	.	.	.	.	.	.	.	.	.	.
!	!	!	!	!	!	!LO:TX:t=P:problem:kreska pseudotaktowa	!	!LO:TX:t=P:problem:kreska pseudotaktowa	!	!	!	!	!	!	!	!	!	!	!	!	!	!	!	!	!	!	!LO:TX:t=P:problem:kreska pseudotaktowa
.	.	.	.	.	.	16f\Jk	.	16dd\Jk	16AA/	-lei-	.	.	.	.	16e/	-i-	.	.	.	.	.	.	.	.	.	.	16dd\Jk
!	!	!	!	!	!	!	!	!	!	!	!	!	!	!	!	!	!	!	!	!	!	!	!	!	!	!	!LO:LB:g=original
=6-	=6-	=6-	=6-	=6-	=6-	=6-	=6-	=6-	=6-	=6-	=6-	=6-	=6-	=6-	=6-	=6-	=6-	=6-	=6-	=6-	=6-	=6-	=6-	=6-	=6-	=6-	=6-
1D;	#	1D;	#	1D;	1A;	1f#X	1dd;	1dd;	1D;	-ſon.	1F#X/	-ſon.	1A;	-ſon.	1d;	-ſon.	1D;	-ſon.	1A;	-ſon.	1f#X;	-ſon.	1dd;	-ſon.	1D;	1dd;	1dd
1ryy	.	1ryy	.	1ryy	1ryy	1ryy	1ryy	1ryy	1ryy	.	1ryy	.	1ryy	.	1ryy	.	1ryy	.	1ryy	.	1ryy	.	1ryy	.	1ryy	1ryy	1ryy
*clefC4	*	*clefC4	*	*	*	*	*	*	*	*	*	*	*	*	*	*	*	*	*	*	*	*	*	*	*clefC4	*	*
!	!	!	!	!LO:LB:g=original	!LO:LB:g=original	!	!	!	!	!	!	!	!	!	!	!	!	!	!	!	!	!	!	!	!	!	!
=7||-	=7||-	=7||-	=7||-	=7||-	=7||-	=7||-	=7||-	=7||-	=7||-	=7||-	=7||-	=7||-	=7||-	=7||-	=7||-	=7||-	=7||-	=7||-	=7||-	=7||-	=7||-	=7||-	=7||-	=7||-	=7||-	=7||-	=7||-
*M2/1	*	*M2/1	*	*M2/1	*M2/1	*M2/1	*M2/1	*M2/1	*M2/1	*	*M2/1	*	*M2/1	*	*M2/1	*	*M2/1	*	*M2/1	*	*M2/1	*	*M2/1	*	*M2/1	*M2/1	*M2/1
*met(c|)	*	*met(c|)	*	*met(c)	*met(c)	*met(c)	*met(c)	*met(c)	*met(c)	*met(c)	*met(c)	*	*met(c)	*	*met(c)	*	*met(c)	*	*met(c)	*	*met(c)	*	*met(c)	*	*met(c)	*met(c)	*met(c)
!LO:TX:b:t=Christe	!	!LO:TX:b:t=Christe	!	!LO:TX:a:t=5	!LO:TX:a:t=5	!LO:TX:a:t=5	!LO:TX:a:t=5	!LO:TX:a:t=5	!LO:TX:a:t=5	!	!LO:TX:a:t=5	!	!LO:TX:a:t=5	!	!	!	!LO:TX:a:t=5	!	!	!	!LO:TX:a:t=5	!	!	!	!	!LO:TX:a:t=5	!LO:TX:a:t=5
!	!	!	!	!LO:TX:b:t=Christe	!LO:TX:b:t=Christe	!LO:TX:b:t=Christe	!LO:TX:b:t=Christe	!	!	!	!	!	!	!	!	!	!	!	!	!	!	!	!	!	!	!	!
!	!	!	!	!	!	!	!	!	!	!	!	!	!	!	!	!	!	!	!	!	!	!	!	!	!LO:TX:b:t=a3	!	!
!	!	!	!	!	!	!	!	!	!	!	!	!	!	!	!	!	!	!	!	!	!	!	!	!	!LO:TX:b:t=Christe	!LO:TX:b:t=Christe	!LO:TX:b:t=Christe
4.d\	-	4.d\	-	00r	00r	00r	00r	00r	00r	.	00r	.	00r	.	4r	.	00r	.	4r	.	00r	.	4r	.	4.d\	00r	00r
.	.	.	.	.	.	.	.	.	.	.	.	.	.	.	8.f/	Chri-	.	.	8.d\	Chri-	.	.	8a\	Chri-	.	.	.
8B-X\	-:6	8B-X\	-:6	.	.	.	.	.	.	.	.	.	.	.	.	.	.	.	.	.	.	.	8b-X\	.	8B-X\	.	.
.	.	.	.	.	.	.	.	.	.	.	.	.	.	.	16g/	-ste	.	.	16B-X\	-ste	.	.	.	.	.	.	.
4c\	.	4c\	.	.	.	.	.	.	.	.	.	.	.	.	16e/LL	e-	.	.	16c\LL	e-	.	.	16g/LL	-ste	4c\	.	.
.	.	.	.	.	.	.	.	.	.	.	.	.	.	.	16c/	.	.	.	16d\	.	.	.	16e/	.	.	.	.
.	.	.	.	.	.	.	.	.	.	.	.	.	.	.	16d/	.	.	.	(16c\	.	.	.	16f/	.	.	.	.
.	.	.	.	.	.	.	.	.	.	.	.	.	.	.	16e/JJ	.	.	.	16B-X\JJ	.	.	.	16g/JJ	.	.	.	.
!LO:TX:t=P:problem:kreska pseudotaktowa	!	!LO:TX:t=P:problem:kreska pseudotaktowa	!	!	!	!	!	!	!	!	!	!	!	!	!	!	!	!	!LO:TX:t=P:problem:kreska pseudotaktowa	!	!	!	!	!	!LO:TX:t=P:problem:kreska pseudotaktowa	!	!
4A/	6	4A/	6	.	.	.	.	.	.	.	.	.	.	.	8.f/L	.	.	.	4A/)	.	.	.	16a\LL	e-	4A/	.	.
.	.	.	.	.	.	.	.	.	.	.	.	.	.	.	.	.	.	.	.	.	.	.	16b-X\	.	.	.	.
.	.	.	.	.	.	.	.	.	.	.	.	.	.	.	.	.	.	.	.	.	.	.	16ccny\	.	.	.	.
!	!	!	!	!	!	!	!	!	!	!	!	!	!	!	!	!	!	!	!	!	!	!	!LO:TX:t=P:problem:kreska pseudotaktowa	!	!	!	!
.	.	.	.	.	.	.	.	.	.	.	.	.	.	.	32d/LL	.	.	.	.	.	.	.	16a\JJ	.	.	.	.
!	!	!	!	!	!	!	!	!	!	!	!	!	!	!	!LO:TX:t=P:problem:kreska pseudotaktowa	!	!	!	!	!	!	!	!	!	!	!	!
.	.	.	.	.	.	.	.	.	.	.	.	.	.	.	32f/JJJ	.	.	.	.	.	.	.	.	.	.	.	.
4B-X\	-	4B-X\	-	.	.	.	.	.	.	.	.	.	.	.	16d/LL	-le-	.	.	(4B-\	-lei-	.	.	16dd\LL	.	4B-X\	.	.
.	.	.	.	.	.	.	.	.	.	.	.	.	.	.	16e/	.	.	.	.	.	.	.	16cc\	.	.	.	.
.	.	.	.	.	.	.	.	.	.	.	.	.	.	.	16f/	.	.	.	.	.	.	.	(16b-X\	.	.	.	.
.	.	.	.	.	.	.	.	.	.	.	.	.	.	.	16g/JJ	.	.	.	.	.	.	.	16a\JJ)	.	.	.	.
4c\	6 5	4c\	6 5	.	.	.	.	.	.	.	.	.	.	.	16e/LL	.	.	.	4c\)	.	.	.	(16g\LL	-lei-	4c\	.	.
.	.	.	.	.	.	.	.	.	.	.	.	.	.	.	16f/	.	.	.	.	.	.	.	16a\	.	.	.	.
.	.	.	.	.	.	.	.	.	.	.	.	.	.	.	16g/	.	.	.	.	.	.	.	16b-X\	.	.	.	.
.	.	.	.	.	.	.	.	.	.	.	.	.	.	.	16a/JJ	-i-	.	.	.	.	.	.	16cc\JJ)	.	.	.	.
!LO:TX:t=P:problem:kreska pseudotaktowa	!	!LO:TX:t=P:problem:kreska pseudotaktowa	!	!	!	!	!	!	!	!	!	!	!	!	!	!	!	!	!	!	!	!	!LO:TX:t=P:problem:kreska pseudotaktowa	!	!LO:TX:t=P:problem:kreska pseudotaktowa	!	!
2F/	.	2F/	.	.	.	.	.	.	.	.	.	.	.	.	4f/	-ſon	.	.	4F/	-ſon,	.	.	2a\	-ſon	2F/	.	.
.	.	.	.	.	.	.	.	.	.	.	.	.	.	.	4r	.	.	.	(16F/LL	Chri-	.	.	.	.	.	.	.
.	.	.	.	.	.	.	.	.	.	.	.	.	.	.	.	.	.	.	16Gny/	.	.	.	.	.	.	.	.
.	.	.	.	.	.	.	.	.	.	.	.	.	.	.	.	.	.	.	16F/	.	.	.	.	.	.	.	.
.	.	.	.	.	.	.	.	.	.	.	.	.	.	.	.	.	.	.	16E/JJ	.	.	.	.	.	.	.	.
!LO:LB:g=original	!	!LO:LB:g=original	!	!	!	!	!	!	!	!	!	!	!	!	!LO:LB:g=original	!	!	!	!	!	!	!	!	!	!	!	!
=8-	=8-	=8-	=8-	=8-	=8-	=8-	=8-	=8-	=8-	=8-	=8-	=8-	=8-	=8-	=8-	=8-	=8-	=8-	=8-	=8-	=8-	=8-	=8-	=8-	=8-	=8-	=8-
4D/	-	4D/	.	.	.	.	.	.	.	.	.	.	.	.	(16dd\LL	Chri-	.	.	8.D/)	.	.	.	(16ff\LL	Chri-	4D/	.	.
.	.	.	.	.	.	.	.	.	.	.	.	.	.	.	16ee\	.	.	.	.	.	.	.	16gg\	.	.	.	.
.	.	.	.	.	.	.	.	.	.	.	.	.	.	.	16dd\	.	.	.	.	.	.	.	16ff\	.	.	.	.
.	.	.	.	.	.	.	.	.	.	.	.	.	.	.	16cc\JJ	.	.	.	16D/	-ste	.	.	16ee\JJ	.	.	.	.
4G/	.	4G/	.	.	.	.	.	.	.	.	.	.	.	.	8bny\)	.	.	.	(16G/LL	Chri-	.	.	8dd\)	.	4G/	.	.
.	.	.	.	.	.	.	.	.	.	.	.	.	.	.	.	.	.	.	16A/	.	.	.	.	.	.	.	.
.	.	.	.	.	.	.	.	.	.	.	.	.	.	.	8b\	-ste	.	.	16G/	.	.	.	8dd\	-ste	.	.	.
.	.	.	.	.	.	.	.	.	.	.	.	.	.	.	.	.	.	.	16F/JJ	.	.	.	.	.	.	.	.
4E/	-	4E/	.	.	.	.	.	.	.	.	.	.	.	.	(16g\LL	Chri-	.	.	8E/)	.	.	.	(16ee\LL	Chri-	4E/	.	.
.	.	.	.	.	.	.	.	.	.	.	.	.	.	.	16a\	.	.	.	.	.	.	.	16ff\	.	.	.	.
.	.	.	.	.	.	.	.	.	.	.	.	.	.	.	16g\	.	.	.	8E/	-ste,	.	.	16ee\	.	.	.	.
.	.	.	.	.	.	.	.	.	.	.	.	.	.	.	16f\JJ	.	.	.	.	.	.	.	16dd\JJ	.	.	.	.
!LO:TX:t=P:problem:kreska pseudotaktowa	!	!LO:TX:t=P:problem:kreska pseudotaktowa	!	!	!	!	!	!	!	!	!	!	!	!	!	!	!	!	!	!	!	!	!	!	!LO:TX:t=P:problem:kreska pseudotaktowa	!	!
4A/	#	4A/	#	.	.	.	.	.	.	.	.	.	.	.	8e/)	.	.	.	16A\LL	Chri-	.	.	8cc#X\)	.	4A/	.	.
.	.	.	.	.	.	.	.	.	.	.	.	.	.	.	.	.	.	.	16B-X\	.	.	.	.	.	.	.	.
!	!	!	!	!	!	!	!	!	!	!	!	!	!	!	!LO:TX:t=P:problem:kreska pseudotaktowa	!	!	!	!	!	!	!	!LO:TX:t=P:problem:kreska pseudotaktowa	!	!	!	!
.	.	.	.	.	.	.	.	.	.	.	.	.	.	.	8e/	-ste	.	.	16A\	.	.	.	8cc#\	-ste	.	.	.
!	!	!	!	!	!	!	!	!	!	!	!	!	!	!	!	!	!	!	!LO:TX:t=P:problem:kreska pseudotaktowa	!	!	!	!	!	!	!	!
.	.	.	.	.	.	.	.	.	.	.	.	.	.	.	.	.	.	.	16G\JJ	.	.	.	.	.	.	.	.
!	!	!	!	!	!	!	!	!	!	!	!	!	!	!	!	!	!	!	!LO:LB:g=original	!	!	!	!LO:LB:g=original	!	!	!	!
*	*	*	*	*	*	*	*	*	*	*	*	*	*	*	*	*ij	*	*	*	*	*	*	*	*	*	*	*
4F/	6	4F/	6	.	.	.	.	.	.	.	.	.	.	.	8.a\	Chri-	.	.	8F/	.	.	.	8ff\	Chri-	4F/	.	.
.	.	.	.	.	.	.	.	.	.	.	.	.	.	.	.	.	.	.	8F/	-ste	.	.	8ff\	.	.	.	.
.	.	.	.	.	.	.	.	.	.	.	.	.	.	.	16cc\	-ste	.	.	.	.	.	.	.	.	.	.	.
8G\L	-	8G\L	-	.	.	.	.	.	.	.	.	.	.	.	8b\	Chri-	.	.	8r	.	.	.	8ee\L	-ste	8G\L	.	.
8B-X\J	6	8B-X\J	6	.	.	.	.	.	.	.	.	.	.	.	8dd\	-ste	.	.	(16G\LL	e-	.	.	(8dd\J	.	8B-X\J	.	.
*	*	*	*	*	*	*	*	*	*	*	*	*	*	*	*	*Xij	*	*	*	*	*	*	*	*	*	*	*
.	.	.	.	.	.	.	.	.	.	.	.	.	.	.	.	.	.	.	16B-\JJ)	.	.	.	.	.	.	.	.
4A/	7	4A/	7	.	.	.	.	.	.	.	.	.	.	.	8ee\	Chri-	.	.	8A/	-lei-	.	.	8.cc#X\L	e-	4A/	.	.
.	.	.	.	.	.	.	.	.	.	.	.	.	.	.	16ee\	-ste	.	.	8A/	-ſon	.	.	.	.	.	.	.
.	.	.	.	.	.	.	.	.	.	.	.	.	.	.	16gg\	e-	.	.	.	.	.	.	16ee\Jk	.	.	.	.
!	!	!	!	!	!	!	!	!	!	!	!	!	!	!	!LO:TX:t=P:problem:kreska pseudotaktowa	!	!	!	!	!	!	!	!	!	!LO:TX:t=P:problem:kreska pseudotaktowa	!	!
4F/	#	4F/	#	.	.	.	.	.	.	.	.	.	.	.	4ff\	-le-	.	.	8r	.	.	.	2dd\	.	4F/	.	.
.	.	.	.	.	.	.	.	.	.	.	.	.	.	.	.	.	.	.	(16F/LL	e-	.	.	.	.	.	.	.
.	.	.	.	.	.	.	.	.	.	.	.	.	.	.	.	.	.	.	16A/JJ)	.	.	.	.	.	.	.	.
=9-	=9-	=9-	=9-	=9-	=9-	=9-	=9-	=9-	=9-	=9-	=9-	=9-	=9-	=9-	=9-	=9-	=9-	=9-	=9-	=9-	=9-	=9-	=9-	=9-	=9-	=9-	=9-
4G/	6 5	4G/	6 5	1r	1r	1r	1r	1r	1r	.	1r	.	1r	.	2ee\	-i-	1r	.	(8G\L	-lei-	1r	.	.	.	4G/	1r	1r
.	.	.	.	.	.	.	.	.	.	.	.	.	.	.	.	.	.	.	16c\L	.	.	.	.	.	.	.	.
.	.	.	.	.	.	.	.	.	.	.	.	.	.	.	.	.	.	.	16B-X\JJ)	.	.	.	.	.	.	.	.
4A/	#	4A/	#	.	.	.	.	.	.	.	.	.	.	.	.	.	.	.	4A/	.	.	.	4cc#X\	-lei-	4A/	.	.
!LO:TX:t=P:problem:kreska pseudotaktowa	!	!LO:TX:t=P:problem:kreska pseudotaktowa	!	!	!	!	!	!	!	!	!	!	!	!	!LO:TX:t=P:problem:kreska pseudotaktowa	!	!	!	!LO:TX:t=P:problem:kreska pseudotaktowa	!	!	!	!LO:TX:t=P:problem:kreska pseudotaktowa	!	!	!	!
2D/	#	2D/	#	.	.	.	.	.	.	.	.	.	.	.	2dd\	-ſon	.	.	2D/	-ſon	.	.	2dd\	-ſon,	2D/	.	.
*clefF4	*	*clefF4	*	*	*	*	*	*	*	*	*	*	*	*	*	*	*	*	*	*	*	*	*	*	*clefF4	*	*
!	!	!LO:TX:b:t=Tuti	!	!	!	!	!	!	!	!	!	!	!	!	!	!	!LO:TX:a:t=Tutti	!	!	!	!	!	!	!	!	!	!
!	!	!	!	!	!	!	!	!	!	!	!	!	!	!	!	!	!	!	!	!	!	!	!	!	!LO:TX:b:t=tutti	!	!
4.D/	-	4.D/	-	4r	4r	4r	4r	4r	4r	.	4r	.	4r	.	4r	.	4r	.	4r	.	4r	.	4r	.	4.D/	4r	4r
.	.	.	.	8D/L	8d\L	8f\nyL	8ff\L	8ff\L	8D/	Chri-	8d\	Chri-	8a\	Chri-	8ff\	Chri-	8.D/	Chri-	8.d\	Chri-	8fny\	Chri-	8.ff\	Chri-	.	8ff\L	8ff\L
8BBny/	6	8BB-X/	6	8BB-X/	8d\J	8g\J	8dd\J	8dd\J	8BB-X/	-ste	8d\	-ste	8g\	-ste	8dd\	-ste	.	.	.	.	8g\	.	.	.	8BB-X/	8dd\J	8dd\J
.	.	.	.	.	.	.	.	.	.	.	.	.	.	.	.	.	16BB-X/	-ste	16d\	-ste	.	.	16dd\	.	.	.	.
!	!	!	!	!	!	!	!	!	!	!	!LO:TX:t=P:problem:kreska pseudotaktowa	!	!	!	!	!	!	!	!LO:TX:t=P:problem:kreska pseudotaktowa	!	!	!	!	!	!	!	!
!	!	!	!	!	!	!LO:SIC:v:t=custos e	!	!	!	!	!	!	!	!	!	!	!	!	!	!	!	!	!	!	!	!	!
*	*	*	*	*	*	*	*	*	*	*	*	*	*	*ij	*	*	*	*	*	*	*	*	*	*	*	*	*
4Cny/	6	4Cny/	6	16Cny/L	4.c\	4e\	16ee\LL	16ee\LL	(16Cny/LL	e-	2c\	e-	4g\	Chri-	16ee\LL	e-	(16Cny/LL	Chri-	2c\	e-	4e\	ste	16ee\LL	-ste	4Cny/	16ee\LL	16ee\LL
.	.	.	.	16D/	.	.	16ff\	16ff\	16D/	.	.	.	.	.	16ff\	.	16D/	.	.	.	.	.	16ff\	.	.	16ff\	16ff\
.	.	.	.	16C/	.	.	16ee\	16ee\	16C/	.	.	.	.	.	16ee\	.	16C/	.	.	.	.	.	16ee\	.	.	16ee\	16ee\
.	.	.	.	16BB-/JJ	.	.	16dd\JJ	16dd\JJ	16BB-/JJ	.	.	.	.	.	16dd\JJ	.	16BB-/JJ	.	.	.	.	.	16dd\JJ	.	.	16dd\JJ	16dd\JJ
!	!	!	!	!	!	!	!	!	!	!	!	!	!	!	!	!	!	!	!	!	!	!	!	!	!LO:TX:t=P:problem:kreska pseudotaktowa	!	!
!LO:TX:t=P:problem:kreska pseudotaktowa	!	!LO:TX:t=P:problem:kreska pseudotaktowa	!	!	!	!	!	!	!LO:TX:t=P:problem:kreska pseudotaktowa	!	!	!	!LO:TX:t=P:problem:kreska pseudotaktowa	!	!	!	!LO:TX:t=P:problem:kreska pseudotaktowa	!	!	!	!	!	!	!	!	!	!
4AA/	.	4AA/	.	8AA/L	.	2f\	16ccny\LL	16cc\LL	4AA/)	.	.	.	4f\	-ste	16cc\LL	.	4AA/)	.	.	.	2f\	e-	16cc#\LL	e-	4AA/	16ccny\LL	16cc\LL
*	*	*	*	*	*	*	*	*	*	*	*	*	*	*Xij	*	*	*	*	*	*	*	*	*	*	*	*	*
.	.	.	.	.	.	.	16dd\	16dd\	.	.	.	.	.	.	16dd\	.	.	.	.	.	.	.	16dd\	.	.	16dd\	16dd\
!	!	!	!	!LO:TX:t=P:problem:kreska pseudotaktowa	!LO:TX:t=P:problem:kreska pseudotaktowa	!	!	!	!	!	!	!	!	!	!	!	!	!	!	!	!	!	!	!	!	!	!
.	.	.	.	8AA/J	8c\	.	16ee\	16ee\	.	.	.	.	.	.	16ee\	.	.	.	.	.	.	.	16ee\	.	.	16ee\	16ee\
!	!	!	!	!	!	!	!LO:TX:t=P:problem:kreska pseudotaktowa	!LO:TX:t=P:problem:kreska pseudotaktowa	!	!	!	!	!	!	!	!	!	!	!	!	!	!	!	!	!	!	!
!	!	!	!	!	!	!	!	!	!	!	!	!	!	!	!LO:TX:t=P:problem:kreska pseudotaktowa	!	!	!	!	!	!	!	!LO:TX:t=P:problem:kreska pseudotaktowa	!	!	!LO:TX:t=P:problem:kreska pseudotaktowa	!LO:TX:t=P:problem:kreska pseudotaktowa
.	.	.	.	.	.	.	16cc\JJ	16cc\JJ	.	.	.	.	.	.	16ff\JJ	.	.	.	.	.	.	.	16cc#\JJ	.	.	16cc\JJ	16cc\JJ
=10-	=10-	=10-	=10-	=10-	=10-	=10-	=10-	=10-	=10-	=10-	=10-	=10-	=10-	=10-	=10-	=10-	=10-	=10-	=10-	=10-	=10-	=10-	=10-	=10-	=10-	=10-	=10-
!	!	!	!	!	!	!	!LO:SIC:v:t=custos dd	!LO:SIC:v:t=custos dd	!	!	!	!	!	!	!	!	!	!	!	!	!	!	!	!	!LO:SIC:v:t=custos BB	!	!
!	!	!	!	!	!	!	!LO:LB:g=original	!LO:LB:g=original	!	!	!	!	!	!	!	!	!	!	!	!	!	!	!	!	!LO:LB:g=original	!	!
4BB-X/	5	4BB-X/	5	4BB-X/	8B-X\L	.	16dd\LL	16dd\LL	4BB-X/	-le-	(8B-X\L	-lei-	4f\	e-	16dd\LL	.	4BB-X/	-ste	(8B-X\L	-lei-	.	.	16dd\LL	.	4BB-X/	16dd\LL	16dd\LL
.	.	.	.	.	.	.	16cc\	16cc\	.	.	.	.	.	.	16cc\	.	.	.	.	.	.	.	16ccny\	.	.	16cc\	16cc\
.	.	.	.	.	16c\L	.	16b-X\	16b-X\	.	.	16c\L	.	.	.	16b-X\	.	.	.	16c\L	.	.	.	16b-X\	.	.	16b-X\	16b-X\
.	.	.	.	.	16d\JJ	.	16a\JJ	16a\JJ	.	.	16d\JJ	.	.	.	16a\JJ	.	.	.	16d\JJ)	.	.	.	16a\JJ	.	.	16a\JJ	16a\JJ
!	!	!	!	!	!	!	!	!	!	!	!	!	!	!	!LO:LB:g=original	!	!	!	!	!	!	!	!	!	!	!	!
4C/	6	4C/	6	4C/	8G\L	4e\	16g\LL	16g\LL	4C/	-i-	4c\)	.	4e\	-lei-	(16g\LL	-lei-	8.C/	e-	4c\	.	4e\	-lei-	16g\LL	-lei-	4C/	16g\LL	16g\LL
.	.	.	.	.	.	.	16a\	16a\	.	.	.	.	.	.	16a\	.	.	.	.	.	.	.	16a\	.	.	16a\	16a\
.	.	.	.	.	8c\J	.	16b-X\	16b-X\	.	.	.	.	.	.	16b-X\	.	.	.	.	.	.	.	16b-X\	.	.	16b-X\	16b-X\
.	.	.	.	.	.	.	16cc\JJ	16cc\JJ	.	.	.	.	.	.	16cc\JJ)	.	16C/	-lei-	.	.	.	.	16cc\JJ	.	.	16cc\JJ	16cc\JJ
!	!	!	!	!	!	!	!	!	!	!	!	!	!	!	!	!	!	!	!	!	!	!	!	!	!	!LO:TX:t=P:problem:kreska pseudotaktowa	!
!LO:TX:t=P:problem:kreska pseudotaktowa	!	!LO:TX:t=P:problem:kreska pseudotaktowa	!	!	!LO:TX:t=P:problem:kreska pseudotaktowa	!	!LO:TX:t=P:problem:kreska pseudotaktowa	!LO:TX:t=P:problem:kreska pseudotaktowa	!	!	!LO:TX:t=P:problem:kreska pseudotaktowa	!	!	!	!LO:TX:t=P:problem:kreska pseudotaktowa	!	!	!	!LO:TX:t=P:problem:kreska pseudotaktowa	!	!	!	!LO:TX:t=P:problem:kreska pseudotaktowa	!	!LO:TX:t=P:problem:kreska pseudotaktowa	!	!LO:TX:t=P:problem:kreska pseudotaktowa
!	!	!	!	!	!	!	!	!	!	!	!	!	!	!	!	!	!LO:SIC:v:t=custos F	!	!	!	!	!	!	!	!	!	!
!	!	!	!	!	!	!	!	!	!	!	!	!	!	!	!	!	!LO:LB:g=original	!	!	!	!	!	!	!	!	!	!
2FF/	.	2FF/	.	4FF/	2c\	4f\	2a\	2a\	4FF/	-ſon	2c\	-ſon	4f\	-ſon	2a\	-ſon	4FF/	-ſon	2c\	-ſon,	4f\	.	2a\	-ſon.	2FF/	2a\	2a\
.	.	.	.	16F\LL	.	16a\LL	.	.	(16F\LL	Chri-	.	.	(16a\LL	Chri-	.	.	(16F\LL	Chri-	.	.	(16a\LL	-ſon	.	.	.	.	.
.	.	.	.	16G\	.	16b-X\	.	.	16G\	.	.	.	16b\	.	.	.	16G\	.	.	.	16b-X\	.	.	.	.	.	.
.	.	.	.	16F\	.	16a\	.	.	16F\	.	.	.	16a\	.	.	.	16F\	.	.	.	16a\	.	.	.	.	.	.
!	!	!	!	!LO:TX:t=P:problem:kreska pseudotaktowa	!	!LO:TX:t=P:problem:kreska pseudotaktowa	!	!	!	!	!	!	!LO:TX:t=P:problem:kreska pseudotaktowa	!	!	!	!LO:TX:t=P:problem:kreska pseudotaktowa	!	!	!	!LO:TX:t=P:problem:kreska pseudotaktowa	!	!	!	!	!	!
.	.	.	.	16E\JJ	.	16g\JJ	.	.	16E\JJ	.	.	.	16g\JJ	.	.	.	16E\JJ)	.	.	.	16g\JJ)	.	.	.	.	.	.
!	!	!	!	!	!	!	!	!	!	!	!	!	!	!	!	!	!	!	!	!	!	!	!	!	!	!LO:SIC:v:t=custos ff	!
!	!	!	!	!	!	!	!	!	!	!	!	!	!	!	!	!	!	!	!	!	!	!	!	!	!	!LO:LB:g=original	!
4D/	.	4D/	.	8D/L	16d\LL	4f\	16ff\LL	16ff\LL	8D\)	.	(16d\LL	Chri-	4f\)	.	(16ff\LL	Chri-	8D/	.	(16d\LL	Chri-	4f\	Chri-	(16ff\LL	Chri-	4D/	16ff\LL	16ff\LL
.	.	.	.	.	16e\	.	16gg\	16gg\	.	.	16e\	.	.	.	16gg\	.	.	.	16e\JJ)	.	.	.	16gg\	.	.	16gg\	16gg\
.	.	.	.	8D/J	16d\	.	16ff\	16ff\	8D\	-ste,	16d\	.	.	.	16ff\	.	8D/	-ste	(16d\LL	-ste	.	.	16ff\	.	.	16ff\	16ff\
.	.	.	.	.	16c\JJ	.	16ee\JJ	16ee\JJ	.	.	16c\JJ	.	.	.	16ee\JJ	.	.	.	16c\JJ)	.	.	.	16ee\JJ	.	.	16ee\JJ	16ee\JJ
4G\	.	4G\	.	16G\LL	16B-\LL	4g\	8dd\LL	8dd\L	(16G\LL	Chri-	16B-\LL	.	4g\	-ste	8dd\)	.	(16G\LL	Chri-	(16Bny\LL	e-	4g\	-ste	8.dd\)	.	4G\	8dd\L	8dd\L
.	.	.	.	16A\	16c\	.	.	.	16A\	.	16c\	.	.	.	.	.	16A\	.	16c\JJ)	.	.	.	.	.	.	.	.
.	.	.	.	16G\	16B-\	.	8dd\JJ	8dd\J	16G\	.	16B-\	.	.	.	8dd\	-ste	16G\	.	(16B\LL	.	.	.	.	.	.	8dd\J	8dd\J
.	.	.	.	16F\JJ	16A\JJ	.	.	.	16F\JJ	.	16A\JJ	.	.	.	.	.	16F\JJ	.	16A\JJ)	.	.	.	16dd\	-ste	.	.	.
!	!	!	!	!	!	!	!	!	!LO:SIC:v:t=custos E	!	!	!	!	!	!	!	!	!	!	!	!	!	!	!	!	!	!
!	!	!	!	!	!	!	!	!	!LO:LB:g=original	!	!	!	!LO:LB:g=original	!	!	!	!	!	!LO:LB:g=original	!	!	!	!	!	!	!	!LO:LB:g=original
4E\	-	4E\	-	8E\L	8G/L	16g\LL	16ee\LL	16ff\LL	8E\)	.	8G/)	.	(16g\LL	Chri-	(16ee\LL	Chri-	8E\)	.	8G/	-lei-	(16g\LL	Chri-	(16ee\LL	Chri-	4E\	16ee\LL	16ff\LL
.	.	.	.	.	.	16a\	16ff\	16ff\	.	.	.	.	16a\	.	16ff\	.	.	.	.	.	16a\JJ)	.	16ff\	.	.	16ff\	16ff\
.	.	.	.	8E\J	8G/J	16g\	16ee\	16ee\	8E\	-ste	8G/	-ste	16g\	.	16ee\	.	8E\	-ste	8G/	-ſon	(16g\LL	.	16ee\	.	.	16ee\	16ee\
.	.	.	.	.	.	16f\JJ	16dd\JJ	16dd\JJ	.	.	.	.	16f\JJ	.	16dd\JJ	.	.	.	.	.	16f\JJ)	.	16dd\JJ	.	.	16dd\JJ	16dd\JJ
!LO:TX:t=P:problem:kreska pseudotaktowa	!	!LO:TX:t=P:problem:kreska pseudotaktowa	!	!	!	!	!	!	!	!	!	!	!	!	!	!	!	!	!	!	!	!	!	!	!LO:TX:t=P:problem:kreska pseudotaktowa	!	!
4A\	.	4A\	.	16A\LL	16c\LL	8e\L	8cc\LL	8cc\L	16A\LL	Chri-	(16c\LL	Chri-	8e\)	.	8cc\)	.	(16A\LL	Chri-	(16c\LL	e-	8e\	-ste	8cc\)	.	4A\	8cc\L	8cc\L
.	.	.	.	16B-X\	16d\	.	.	.	(16B-X\	.	16d\	.	.	.	.	.	16B-X\	.	16d\JJ)	.	.	.	.	.	.	.	.
!	!	!	!	!	!	!LO:TX:t=P:problem:kreska pseudotaktowa	!LO:TX:t=P:problem:kreska pseudotaktowa	!LO:TX:t=P:problem:kreska pseudotaktowa	!	!	!	!	!LO:TX:t=P:problem:kreska pseudotaktowa	!	!LO:TX:t=P:problem:kreska pseudotaktowa	!	!	!	!	!	!LO:TX:t=P:problem:kreska pseudotaktowa	!	!LO:TX:t=P:problem:kreska pseudotaktowa	!	!	!LO:TX:t=P:problem:kreska pseudotaktowa	!LO:TX:t=P:problem:kreska pseudotaktowa
.	.	.	.	16A\	16c\	8e\J	8cc\JJ	8cc\J	16A\	.	16c\	.	8e\	-ste	8cc\	-ste	16A\	.	(16c\LL	.	8e\	e-	8cc\	-ste,	.	8cc\J	8cc\J
!	!	!	!	!LO:TX:t=P:problem:kreska pseudotaktowa	!LO:TX:t=P:problem:kreska pseudotaktowa	!	!	!	!	!	!LO:TX:t=P:problem:kreska pseudotaktowa	!	!	!	!	!	!	!	!	!	!	!	!	!	!	!	!
.	.	.	.	16G\JJ	16B-\JJ	.	.	.	16G\JJ	.	16B-\JJ	.	.	.	.	.	16G\JJ	.	16B-X\JJ)	.	.	.	.	.	.	.	.
!	!	!	!	!	!	!	!	!	!	!	!	!	!	!	!	!	!	!	!	!	!	!	!LO:LB:g=original	!	!	!	!
=11-	=11-	=11-	=11-	=11-	=11-	=11-	=11-	=11-	=11-	=11-	=11-	=11-	=11-	=11-	=11-	=11-	=11-	=11-	=11-	=11-	=11-	=11-	=11-	=11-	=11-	=11-	=11-
4F\	.	4F\	.	8F\L	4A/	8.f\L	8r	8r	8F\)	.	8A/)	.	8.f\L	e-	8r	.	8F\)	.	8A/	-lei	8f\L	.	8r	.	4F\	8r	8r
*	*	*	*	*	*	*	*	*	*	*	*	*	*	*	*	*ij	*	*	*	*	*	*	*	*	*	*	*
.	.	.	.	8F\J	.	.	16a\LL	16a\LL	8F\	-ste	8A/	-ste	.	.	16a\	Chri-	8F\	-ste	8A/	ſon	8a\J	.	16a\LL	e-	.	16a\LL	16a\LL
.	.	.	.	.	.	16a\Jk	16cc\JJ	16cc\JJ	.	.	.	.	16a\Jk	.	16cc\	-ste	.	.	.	.	.	.	16cc\JJ	.	.	16cc\JJ	16cc\JJ
*	*	*	*	*	*	*	*	*	*	*	*	*	*	*	*	*Xij	*	*	*	*	*	*	*	*	*	*	*
8G\L	#	8G\L	.	8r	4r	8g\L	8.bny\LJ	8.bny\LL	8G\	e-	4r	.	8g\L	.	8bny\	e-	8r	.	4r	.	8g\L	.	8bny\L	.	8G\L	8.bny\L	8.bny\L
8Bny\J	-	8Bny\J	.	16G\LL	.	16f\L	.	.	8B-X\	-lei-	.	.	16f\L	.	8dd\	.	(16G\LL	e-	.	.	16f\L	.	16cc\L	.	8Bny\J	.	.
.	.	.	.	16B-X\JJ	.	16g\JJ	16dd\L	16dd\JJ	.	.	.	.	16g\JJ	.	.	.	16B-X\JJ)	.	.	.	16g\JJ	.	16dd\JJ	.	.	16dd\Jk	16dd\Jk
4A\	#	4A\	.	4A\	4r	8a\L	8cc#X\J	8cc#X\L	4A\	-ſon	4r	.	8a\L	.	8.cc#X\	.	8A\	-lei-	4r	.	8a\L	-lei-	8cc#X\	-lei-	4A\	8cc#X\L	8cc#X\L
.	.	.	.	.	.	16e\L	16cc#\L	16cc#\L	.	.	.	.	16e\L	.	.	.	8A\	-ſon	.	.	16e\L	.	16cc#\	-ſon	.	16cc#\L	16cc#\L
.	.	.	.	.	.	16g\JJ	16ee\	16ee\JJ	.	.	.	.	16g\JJ	.	16ee\	.	.	.	.	.	16g\JJ	.	16ee\	.	.	16ee\JJ	16ee\JJ
!LO:TX:t=P:problem:kreska pseudotaktowa	!	!LO:TX:t=P:problem:kreska pseudotaktowa	!	!	!	!	!LO:TX:t=P:problem:kreska pseudotaktowa	!LO:TX:t=P:problem:kreska pseudotaktowa	!	!	!	!	!LO:TX:t=P:problem:kreska pseudotaktowa	!	!	!	!	!	!	!	!LO:TX:t=P:problem:kreska pseudotaktowa	!	!LO:TX:t=P:problem:kreska pseudotaktowa	!	!LO:TX:t=P:problem:kreska pseudotaktowa	!LO:TX:t=P:problem:kreska pseudotaktowa	!LO:TX:t=P:problem:kreska pseudotaktowa
4F\	-	4F\	-	8r	8r	8f\L	4.dd\	4.dd\	(8.F\L	e-	8r	.	4f\	-lei-	2dd\	-lei-	8r	.	8r	.	4f\	.	4dd\	e-	4F\	4.dd\	4.dd\
!	!	!	!	!	!	!	!	!	!	!	!	!	!	!	!	!	!	!	!	!	!LO:LB:g=original	!	!	!	!	!	!
!	!	!	!	!	!	!LO:TX:t=P:problem:kreska pseudotaktowa	!	!	!	!	!	!	!	!	!	!	!	!	!	!	!	!	!	!	!	!	!
.	.	.	.	16F\LL	16A\LL	8f\J	.	.	.	.	(16A\LL	e-	.	.	.	.	(16F\LL	e-	16A/	Chri-	.	.	.	.	.	.	.
!	!	!	!	!LO:TX:t=P:problem:kreska pseudotaktowa	!LO:TX:t=P:problem:kreska pseudotaktowa	!	!	!	!LO:TX:t=P:problem:kreska pseudotaktowa	!	!LO:TX:t=P:problem:kreska pseudotaktowa	!	!	!	!	!	!	!	!LO:TX:t=P:problem:kreska pseudotaktowa	!	!	!	!	!	!	!	!
.	.	.	.	16A\JJ	16c\JJ	.	.	.	16A\Jk)	.	16c\JJ)	.	.	.	.	.	16A\JJ)	.	16c\	.	.	.	.	.	.	.	.
!	!	!	!	!LO:TX:t=P:problem:mixed beam	!	!	!	!	!	!	!	!	!	!	!	!	!	!	!	!	!	!	!	!	!	!	!
!LO:LB:g=original	!	!LO:LB:g=original	!	!	!	!	!	!	!	!	!LO:LB:g=original	!	!	!	!	!	!	!	!	!	!	!	!	!	!	!	!
4G\	6 -:5:3	4G\	6 -:5:3	8G\L	4B-X\	2e\	.	.	(4G\	-lei-	4B-X\	-le-	2e\	-ſon	.	.	(4G\	-lei-	8B-X\	-ſte	2e\	.	4dd\	-lei-	4G\	.	.
.	.	.	.	8GG/J	.	.	16ee\L	16ee\L	.	.	.	.	.	.	.	.	.	.	8B-\	e-	.	.	.	.	.	16ee\L	16ee\L
.	.	.	.	.	.	.	16dd\JJ	16dd\JJ	.	.	.	.	.	.	.	.	.	.	.	.	.	.	.	.	.	16dd\JJ	16dd\JJ
!	!	!	!	!LO:TX:t=P:problem:mixed beam	!	!	!	!	!	!	!	!	!	!	!	!	!	!	!	!	!	!	!	!	!	!	!
4A\	#	4A\	#	8BBny/L	4A/	.	4cc#X\	8.cc#X\L	4A\)	.	4A/	-i-	.	.	4cc#X\	.	4A\)	.	4A/	-lei-	.	.	4cc#X\	.	4A\	4cc#X\	8.cc#X\L
.	.	.	.	8A\J	.	.	.	.	.	.	.	.	.	.	.	.	.	.	.	.	.	.	.	.	.	.	.
.	.	.	.	.	.	.	.	32b\LL	.	.	.	.	.	.	.	.	.	.	.	.	.	.	.	.	.	.	32b\LL
.	.	.	.	.	.	.	.	32cc#\JJJ	.	.	.	.	.	.	.	.	.	.	.	.	.	.	.	.	.	.	32cc#\JJJ
!	!	!	!	!	!	!	!LO:TX:t=P:problem:kreska pseudotaktowa	!LO:TX:t=P:problem:kreska pseudotaktowa	!	!	!	!	!	!	!LO:TX:t=P:problem:kreska pseudotaktowa	!	!	!	!	!	!	!	!LO:TX:t=P:problem:kreska pseudotaktowa	!	!	!LO:TX:t=P:problem:kreska pseudotaktowa	!LO:TX:t=P:problem:kreska pseudotaktowa
!	!	!	!	!LO:LB:g=original	!	!	!	!	!	!	!	!	!	!	!	!	!	!	!	!	!	!	!	!	!	!	!
4D/	.	4D/	.	8D\L	4A/	8f\L	2dd\	2dd\	8D/	-ſon	4A/	-ſon,	8f\	Chri	2dd\	-ſon	8D/	-ſon	4A/	-ſon	8f\	-son	2dd\	-ſon	4D/	2dd\	2dd\
.	.	.	.	16D\L	.	16f\L	.	.	(16D\LL	Chri-	.	.	16f\	.	.	.	(16D\LL	e	.	.	16f\	Chri-	.	.	.	.	.
.	.	.	.	16E\JJ	.	16g\JJ	.	.	16E\JJ)	.	.	.	16g\	.	.	.	16E\JJ	.	.	.	16g\	.	.	.	.	.	.
!LO:TX:t=P:problem:kreska pseudotaktowa	!	!LO:TX:t=P:problem:kreska pseudotaktowa	!	!LO:TX:t=P:problem:kreska pseudotaktowa	!	!	!	!	!	!	!	!	!LO:TX:t=P:problem:kreska pseudotaktowa	!	!	!	!	!	!	!	!LO:TX:t=P:problem:kreska pseudotaktowa	!	!	!	!LO:TX:t=P:problem:kreska pseudotaktowa	!	!
4F\	6	4F\	6	4F\	8r	8.a\L	.	.	8F\	-ste	8r	.	4a\	Chri-	.	.	4F\)	.	8r	.	4a\	-ſte	.	.	4E\	.	.
!	!	!	!	!	!	!	!	!	!LO:TX:t=P:problem:kreska pseudotaktowa	!	!	!	!	!	!	!	!	!	!	!	!	!	!	!	!	!	!
.	.	.	.	.	16A\LL	.	.	.	8F\	e-	16A/	Chri-	.	.	.	.	.	.	16A/	Chri-	.	.	.	.	.	.	.
!	!	!	!	!	!LO:TX:t=P:problem:kreska pseudotaktowa	!	!	!	!	!	!	!	!	!	!	!	!	!	!	!	!	!	!	!	!	!	!
!	!	!	!	!	!	!LO:TX:t=P:problem:kreska pseudotaktowa	!	!	!	!	!LO:TX:t=P:problem:kreska pseudotaktowa	!	!	!	!	!	!	!	!LO:TX:t=P:problem:kreska pseudotaktowa	!	!	!	!	!	!	!	!
.	.	.	.	.	16c\JJ	16a\Jk	.	.	.	.	16c\	-ste	.	.	.	.	.	.	16c\	-ſte	.	.	.	.	.	.	.
=12-	=12-	=12-	=12-	=12-	=12-	=12-	=12-	=12-	=12-	=12-	=12-	=12-	=12-	=12-	=12-	=12-	=12-	=12-	=12-	=12-	=12-	=12-	=12-	=12-	=12-	=12-	=12-
!	!	!	!	!	!LO:SIC:v:t=custos b	!	!	!	!	!	!	!	!	!	!	!	!	!	!	!	!	!	!	!	!	!	!
!	!	!	!	!	!LO:LB:g=original	!	!	!	!	!	!	!	!	!	!	!	!	!	!	!	!	!	!	!	!	!	!
8G\L	-	8G\L	-	8r	8.Bny\L	8g\L	4rJ	4r	(8G\L	-lei-	(8B-X\	e-	8g\L	-ste	4r	.	8r	.	8.B-X\	e-	8.g\L	e-	4r	.	8G\L	4r	4r
!	!	!	!	!	!	!	!	!	!	!	!	!	!	!	!	!	!LO:SIC:v:t=custos G	!	!	!	!	!	!	!	!	!	!
!	!	!	!	!	!	!	!	!	!	!	!	!	!	!	!	!	!LO:LB:g=original	!	!	!	!	!	!	!	!LO:TX:a:t=5	!	!
8B-X\J	5	8B-X\J	5	16G-X\LL	.	16f\L	.	.	8B-X\J	.	8d\)	.	16f\L	.	.	.	(16G\LL	e-	.	.	.	.	.	.	8B-X\J	.	.
.	.	.	.	16Bny\JJ	16d\Jk	16g\JJ	.	.	.	.	.	.	16g\JJ	.	.	.	16B-X\JJ)	.	16d\	-lei-	32f\LL	.	.	.	.	.	.
.	.	.	.	.	.	.	.	.	.	.	.	.	.	.	.	.	.	.	.	.	32g\JJJ	.	.	.	.	.	.
4A\	#	4A\	#	4A\	8c#X\L	8a\L	8r	8r	4A\)	.	8c#X\	-lei-	8a\	e-	8r	.	4A\	-lei-	4c#X\	-ſon.	8a\L	-lei-	8r	.	4A\	8r	8r
.	.	.	.	.	8A\J	16c#X\L	16ee\LL	16ee\LL	.	.	8c#\	-ſon,	16c#X/	-le-	16ee\	Chri-	.	.	.	.	16c#X\L	.	16ee\	Chri-	.	16ee\LL	16ee\LL
.	.	.	.	.	.	16e\JJ	16gg\JJ	16gg\JJ	.	.	.	.	16e\	-i-	16gg\	-ste	.	.	.	.	16e\JJ	.	16gg\	-ste	.	16gg\JJ	16gg\JJ
!LO:TX:t=P:problem:mixed beam	!	!	!	!	!	!	!	!	!	!	!	!	!	!	!	!	!	!	!	!	!	!	!	!	!	!	!
!	!	!	!	!	!	!	!	!LO:LB:g=original	!	!	!	!	!	!	!	!	!	!	!	!	!	!	!	!	!	!	!
*	*	*	*	*	*	*	*	*	*	*	*	*	*	*	*	*	*	*	*	*	*	*	*	*ij	*	*	*
8D/L	.	8D\L	.	8D\L	8D/L	4d\	8ff\L	8ff\L	8D/	-ſon,	8r	.	4d\	-ſon	8ff\	e-	8D/	-ſon	8r	.	4d\	-ſon	8ff\	Chri-	8D\L	8ff\L	8ff\L
!	!	!	!	!	!	!	!LO:LB:g=original	!	!	!	!	!	!	!	!	!	!	!	!	!	!	!	!	!	!LO:TX:a:t=6	!	!
8F\J	6	8F\J	6	16F\L	16A/L	.	8dd\	8dd\	16F\	Chri-	16A/	Chri-	.	.	8dd\	-le-	16F\LL	e-	16A/	Chri-	.	.	8dd\	-ste	8F\J	8dd\	8dd\
*	*	*	*	*	*	*	*	*	*	*	*	*	*	*	*	*	*	*	*	*	*	*	*	*Xij	*	*	*
.	.	.	.	16A\JJ	16c#/JJ	.	.	.	16A\	-ste	16c#\	-ste	.	.	.	.	16A\JJ	.	16c#\	-ste	.	.	.	.	.	.	.
!LO:TX:t=P:problem:kreska pseudotaktowa	!	!LO:TX:t=P:problem:kreska pseudotaktowa	!	!LO:TX:t=P:problem:kreska pseudotaktowa	!	!	!	!	!LO:TX:t=P:problem:kreska pseudotaktowa	!	!	!	!	!	!LO:TX:t=P:problem:kreska pseudotaktowa	!	!	!	!	!	!	!	!	!	!LO:TX:t=P:problem:kreska pseudotaktowa	!	!
*	*	*	*	*	*	*	*	*	*	*ij	*	*	*	*	*	*	*	*	*	*	*	*	*	*	*	*	*
!	!	!	!	!	!	!	!	!	!	!	!	!	!	!	!	!	!	!	!	!	!	!	!	!	!LO:TX:a:t=#	!	!
4.G\	#	4.G\	#	4.G-\	8B\L	8r	8dd\	8dd\	4.G\	Chri-	8Bny\	Chri-	8r	.	4dd\	-i-	4.G\	-lei-	8B-\	Chri-	8r	.	8r	.	4.G\	8dd\	8dd\
!	!	!	!	!	!	!	!	!	!	!	!	!	!	!	!LO:LB:g=original	!	!	!	!	!	!	!	!	!	!	!	!
!	!	!	!	!	!	!	!	!	!	!	!	!	!	!	!	!	!	!	!	!	!	!	!	!	!	!	!LO:TX:t=P:problem:kreska pseudotaktowa
!	!	!	!	!	!	!	!LO:TX:t=P:problem:kreska pseudotaktowa	!LO:TX:t=P:problem:kreska pseudotaktowa	!	!	!	!	!	!	!	!	!	!	!	!	!	!	!LO:TX:t=P:problem:kreska pseudotaktowa	!	!	!LO:TX:t=P:problem:kreska pseudotaktowa	!
.	.	.	.	.	16B\L	16d\LL	8dd\J	8dd\J	.	.	16B\	.	16d\	Chri-	.	.	.	.	16B-\	-ste	16d\	Chri-	8dd\	Chri-	.	8dd\J	8dd\J
!	!	!	!	!	!	!LO:TX:t=P:problem:kreska pseudotaktowa	!	!	!	!	!	!	!	!	!	!	!	!	!	!	!	!	!	!	!	!	!
!	!	!	!	!	!LO:TX:t=P:problem:kreska pseudotaktowa	!	!	!	!	!	!LO:TX:t=P:problem:kreska pseudotaktowa	!	!LO:TX:t=P:problem:kreska pseudotaktowa	!	!	!	!	!	!LO:TX:t=P:problem:kreska pseudotaktowa	!	!LO:TX:t=P:problem:kreska pseudotaktowa	!	!	!	!	!	!
.	.	.	.	.	16d\JJ	16f\JJ	.	.	.	.	16d\	-ste	16g\	-ste	.	.	.	.	16d\	e-	16g\	.	.	.	.	.	.
!	!	!	!	!	!	!LO:SIC:v:t=custos ee	!	!	!	!	!	!	!	!	!	!	!	!	!	!	!	!	!	!	!	!	!
!	!	!	!	!	!	!LO:LB:g=original	!	!	!	!	!	!	!	!	!	!	!	!	!LO:LB:g=original	!	!	!	!	!	!	!	!
*	*	*	*	*	*	*	*	*	*	*	*	*	*	*ij	*	*	*	*	*	*	*	*	*	*	*	*	*
!	!	!	!	!	!	!	!	!	!	!	!	!	!	!	!	!	!	!	!	!	!	!	!	!	!	!	!LO:SIC:v:t=custos a
!	!	!	!	!	!	!	!	!	!	!	!	!	!	!	!	!	!	!	!	!	!	!	!	!	!	!	!LO:LB:g=original
.	.	.	.	.	8c#X\	8e\L	8b-X\L	8a\L	.	.	8c#X\	e-	8e\L	Chri-	8a\	-ſon	.	.	8c#\	-lei-	8e\	-ste	8b-X\	-ste	.	8b-X\L	8a\L
!	!	!	!	!	!	!	!	!	!	!	!	!	!	!	!	!	!	!	!	!	!	!	!	!	!LO:TX:a:t=6 5	!	!
8F\	4 2:6	8F\	4 2:6	8F\	4d\	8f\J	8a\	8a\	8F\J	-ste	4d\	-le-	8f\J	.	8a\	e-	8F\	.	4d\	.	8f\	e-	8a\	e-	8F\	8a\	8a\
*	*	*	*	*	*	*	*	*	*	*Xij	*	*	*	*	*	*	*	*	*	*	*	*	*	*	*	*	*
8G\L	6	8G\L	6	8G-\L	.	8.e\L	8b-X\	8b-X\	8G\	e-	.	.	8.g\L	-ste	8b-X\	-le-	8G\	.	.	.	4e\	-lei-	8.b-X\	-lei-	8G\	8b-X\	8b-X\
*	*	*	*	*	*	*	*	*	*	*	*	*	*	*Xij	*	*	*	*	*	*	*	*	*	*	*	*	*
8A\J	6 5	8A\J	6 5	8A\J	8c#\	.	8a\J	8a\J	8A\	-lei-	8c#X\	-i-	.	.	8a\	-i-	8A\J	.	8c#X\	.	.	.	.	.	8A\J	8a\J	8a\J
.	.	.	.	.	.	16e\Jk	.	.	.	.	.	.	16e\Jk	.	.	.	.	.	.	.	.	.	16a\	.	.	.	.
!LO:TX:t=P:problem:kreska pseudotaktowa	!	!LO:TX:t=P:problem:kreska pseudotaktowa	!	!LO:TX:t=P:problem:kreska pseudotaktowa	!LO:TX:t=P:problem:kreska pseudotaktowa	!LO:TX:t=P:problem:kreska pseudotaktowa	!	!LO:TX:t=P:problem:kreska pseudotaktowa	!	!	!LO:TX:t=P:problem:kreska pseudotaktowa	!	!LO:TX:t=P:problem:kreska pseudotaktowa	!	!LO:TX:t=P:problem:kreska pseudotaktowa	!	!	!	!	!	!	!	!	!	!LO:TX:t=P:problem:kreska pseudotaktowa	!	!LO:TX:t=P:problem:kreska pseudotaktowa
2D/	#	2D/	#	2D/	2d\	2f#X\	2a\	2a\LJ	2D/	-ſon	2d\	-ſon,	2f#X\	.	2a\	-ſon,	2D/	-ſon.	2d\	-ſon	2f#X\	-ſon,	2a\	-ſon	2D/	2a\	2a\
!	!	!	!	!	!	!	!	!	!LO:LB:g=original	!	!	!	!LO:LB:g=original	!	!	!	!	!	!	!	!	!	!	!	!	!LO:LB:g=original	!
=13-	=13-	=13-	=13-	=13-	=13-	=13-	=13-	=13-	=13-	=13-	=13-	=13-	=13-	=13-	=13-	=13-	=13-	=13-	=13-	=13-	=13-	=13-	=13-	=13-	=13-	=13-	=13-
!	!	!	!	!	!	!	!	!	!	!	!	!	!	!	!	!	!	!	!	!	!	!	!	!	!	!LO:TX:a:t=1	!
4D/	-	4D/	-	4D/	2A/	1f-X	1r	4ff\	4D/	Chri-	4.A/	Chri-	4e\	Chri-	4ff\	Chri-	1r	.	1r	.	1r	.	1r	.	4D/	1r	4ff\
4C/	.	4C/	.	4C/	.	.	.	4ee\	4C/	.	.	.	8.e\	-ste	4ee\	-ste	.	.	.	.	.	.	.	.	4C/	.	4ee\
.	.	.	.	.	.	.	.	.	.	.	8A/	-ste	.	.	.	.	.	.	.	.	.	.	.	.	.	.	.
.	.	.	.	.	.	.	.	.	.	.	.	.	16fny\	e-	.	.	.	.	.	.	.	.	.	.	.	.	.
!	!	!	!	!	!	!	!	!	!	!	!	!	!LO:TX:t=P:problem:kreska pseudotaktowa	!	!	!	!	!	!	!	!	!	!	!	!	!	!
*	*	*	*	*	*	*	*	*	*	*	*	*	*	*	*	*ij	*	*	*	*	*	*	*	*	*	*	*
4BB-X/	.	4BB-X/	.	4BB-X/	4B-X\	.	.	4dd\	4BB-X/	-ste	4B-X\	e-	(2f\	.	4dd\	Chri-	.	.	.	.	.	.	.	.	4BB-X/	.	4dd\
!LO:TX:t=P:problem:kreska pseudotaktowa	!	!LO:TX:t=P:problem:kreska pseudotaktowa	!	!LO:TX:t=P:problem:kreska pseudotaktowa	!LO:TX:t=P:problem:kreska pseudotaktowa	!	!	!LO:TX:t=P:problem:kreska pseudotaktowa	!LO:TX:t=P:problem:kreska pseudotaktowa	!	!LO:TX:t=P:problem:kreska pseudotaktowa	!	!	!	!LO:TX:t=P:problem:kreska pseudotaktowa	!	!	!	!	!	!	!	!	!	!LO:TX:t=P:problem:kreska pseudotaktowa	!	!LO:TX:t=P:problem:kreska pseudotaktowa
4AA/	.	4AA/	.	4AA/	4cny\	.	.	4ccny\	4AA/	.	(4cny\	-lei-	.	.	4ccny\	-ste	.	.	.	.	.	.	.	.	4AA/	.	4ccny\
1GG	5:6 -	1GG	5:6 -	1GG	2d\	2g\	8.b-X\L	3...b-X\	1GG	e-	2d\)	.	1g	.	(3...b-X\L	e-	4B-X\	Chri-	4G/	Chri-	(4g\	Chri-	4b-X\	Chri-	1GG	8.b-X\L	3...b-X\
.	.	.	.	.	.	.	16ccny\Jk	.	.	.	.	.	.	.	.	.	.	.	.	.	.	.	.	.	.	16ccny\Jk	.
.	.	.	.	.	.	.	8.cc\L	.	.	.	.	.	.	.	.	.	4A\	.	4A/	ste	4fny\	.	8ccny\	.	.	8.cc\L	.
.	.	.	.	.	.	.	.	.	.	.	.	.	.	.	.	.	.	.	.	.	.	.	8dd\	-ste	.	.	.
.	.	.	.	.	.	.	16dd\Jk	.	.	.	.	.	.	.	.	.	.	.	.	.	.	.	.	.	.	16dd\Jk	.
!	!	!	!	!	!	!	!	!	!	!	!LO:TX:t=P:problem:kreska pseudotaktowa	!	!	!	!	!	!	!	!	!	!	!	!	!	!	!	!
!	!	!	!	!	!	!LO:TX:t=P:problem:kreska pseudotaktowa	!LO:TX:t=P:problem:kreska pseudotaktowa	!	!	!	!	!	!	!	!	!	!	!	!	!	!LO:TX:t=P:problem:kreska pseudotaktowa	!	!LO:TX:t=P:problem:kreska pseudotaktowa	!	!	!LO:TX:t=P:problem:kreska pseudotaktowa	!
.	.	.	.	.	4.B-X\	2g\	(2dd\	.	.	.	2B-X\	-ſon	.	.	.	.	8G\L	-ste	2B-X\	e-	2e\)	.	2dd\	e-	.	2dd\	.
.	.	.	.	.	.	.	.	8a\LL	.	.	.	.	.	.	8a\)	.	8F\	.	.	.	.	.	.	.	.	.	8a\
.	.	.	.	.	.	.	.	8g\	.	.	.	.	.	.	8g\	.	8E\	.	.	.	.	.	.	.	.	.	8g\
!	!	!	!	!	!	!	!	!LO:TX:t=P:problem:kreska pseudotaktowa	!	!	!	!	!	!	!LO:TX:t=P:problem:kreska pseudotaktowa	!	!LO:TX:t=P:problem:kreska pseudotaktowa	!	!	!	!	!	!	!	!	!	!LO:TX:t=P:problem:kreska pseudotaktowa
.	.	.	.	.	8A/	.	.	8f\JJ	.	.	.	.	.	.	8f\J	.	8D\J	.	.	.	.	.	.	.	.	.	8f\J
!	!	!	!	!	!	!	!	!	!	!	!LO:LB:g=original	!	!	!	!	!	!	!	!	!	!	!	!LO:LB:g=original	!	!	!	!
=14-	=14-	=14-	=14-	=14-	=14-	=14-	=14-	=14-	=14-	=14-	=14-	=14-	=14-	=14-	=14-	=14-	=14-	=14-	=14-	=14-	=14-	=14-	=14-	=14-	=14-	=14-	=14-
!	!	!	!	!	!	!	!	!	!	!	!	!	!	!	!	!	!LO:TX:t=P:problem:mixed beam	!	!	!	!	!	!	!	!	!	!
1AA	-:6:7 3:4:#	1AA	-:6:7 3:4:#	1AA	1A	4g\	8.dd\L)	4e/	2.AA/	-le-	4r	.	4g\	.	4e/	.	8C#X/L	e-	1A	-lei-	4e\	.	8dd\L	.	1AA	8.dd\L	4e/
!	!	!	!	!	!	!	!	!	!	!	!	!	!	!	!	!	!LO:SIC:v:t=custos A	!	!	!	!	!	!	!	!	!	!
.	.	.	.	.	.	.	.	.	.	.	.	.	.	.	.	.	8AA/	.	.	.	.	.	8cc#X\J	-le-	.	.	.
.	.	.	.	.	.	.	16cc#X\Jk	.	.	.	.	.	.	.	.	.	.	.	.	.	.	.	.	.	.	16cc#X\Jk	.
.	.	.	.	.	.	4fny\	8.dd\L	2a\	.	.	4.A/	e-	4f\	.	4.a\	.	8F/	.	.	.	4d\	-ste	4dd\	.	.	8.dd\L	2a\
.	.	.	.	.	.	.	.	.	.	.	.	.	.	.	.	.	8D/J	.	.	.	.	.	.	.	.	.	.
.	.	.	.	.	.	.	16ee\Jk	.	.	.	.	.	.	.	.	.	.	.	.	.	.	.	.	.	.	16ee\Jk	.
!	!	!	!	!	!	!	!	!	!	!	!	!	!	!	!	!	!	!	!	!	!	!	!	!	!	!LO:TX:t=P:problem:kreska pseudotaktowa	!
.	.	.	.	.	.	2e\	2ee\	.	.	.	.	.	2e\	-lei-	.	.	2A\	-lai-	.	.	4d\	e-	2ee\	-i-	.	2ee\	.
.	.	.	.	.	.	.	.	.	.	.	24G/LL	-lei-	.	.	8bny\	.	.	.	.	.	.	.	.	.	.	.	.
.	.	.	.	.	.	.	.	.	.	.	24Fny/	.	.	.	.	.	.	.	.	.	.	.	.	.	.	.	.
.	.	.	.	.	.	.	.	.	.	.	24E/JJ	.	.	.	.	.	.	.	.	.	.	.	.	.	.	.	.
!	!	!	!	!	!	!	!	!LO:TX:t=P:problem:kreska pseudotaktowa	!	!	!	!	!	!	!	!	!	!	!	!	!	!	!	!	!	!	!LO:TX:t=P:problem:kreska pseudotaktowa
.	.	.	.	.	.	.	.	4a\J	4AA/	-i-	8F/L	.	.	.	8cc#X\	-le-	.	.	.	.	4c#X/	-lei-	.	.	.	.	4a\
.	.	.	.	.	.	.	.	.	.	.	8A/J	.	.	.	8a\	-i-	.	.	.	.	.	.	.	.	.	.	.
0D	.	0D	.	0D	0F#X	0f#X	0dd	0.a	0.D	-ſon.	0.F#X	-ſon.	0.f#X	-ſon.	0.a	-ſon	0.D	-ſon.	0.A	-ſon.	0.d	-ſon.	0.dd	-ſon.	0.D	0.dd	0a
*	*	*	*	*	*	*	*	*	*	*	*	*	*	*	*	*Xij	*	*	*	*	*	*	*	*	*	*	*
!	!	!LO:LB:g=original	!	!	!	!	!	!	!	!	!	!	!	!	!	!	!LO:LB:g=original	!	!	!	!LO:LB:g=original	!	!	!	!LO:LB:g=original	!	!
=15-	=15-	=15-	=15-	=15-	=15-	=15-	=15-	=15-	=15-	=15-	=15-	=15-	=15-	=15-	=15-	=15-	=15-	=15-	=15-	=15-	=15-	=15-	=15-	=15-	=15-	=15-	=15-
.	.	.	.	.	.	.	.	.	.	.	.	.	.	.	.	.	.	.	.	.	.	.	.	.	.	.	.
1r	.	1r	.	1r	1r	1r	1r	.	.	.	.	.	.	.	.	.	.	.	.	.	.	.	.	.	.	.	1r
*	*	*	*	*	*	*	*	*clefG2	*	*	*	*	*	*	*	*	*	*	*	*	*	*	*	*	*	*	*clefG2
=16||-	=16||-	=16||-	=16||-	=16||-	=16||-	=16||-	=16||-	=16||-	=16||-	=16||-	=16||-	=16||-	=16||-	=16||-	=16||-	=16||-	=16||-	=16||-	=16||-	=16||-	=16||-	=16||-	=16||-	=16||-	=16||-	=16||-	=16||-
*M2/1	*	*M2/1	*	*M2/1	*M2/1	*M2/1	*M2/1	*M2/1	*M2/1	*	*M2/1	*	*M2/1	*	*M2/1	*	*M2/1	*	*M2/1	*	*M2/1	*	*M2/1	*	*M2/1	*M2/1	*M2/1
*met(c|)	*	*met(c|)	*	*met(c)	*met(c)	*met(c)	*met(c)	*	*met(c)	*	*met(c)	*	*met(c)	*	*met(c)	*	*met(c)	*	*met(c)	*	*met(c)	*	*met(c)	*	*met(c)	*met(c)	*met(c)
!	!	!	!	!	!	!	!	!	!LO:TX:a:t=12	!	!LO:TX:a:t=12	!	!LO:TX:a:t=12	!	!LO:TX:a:t=12	!	!LO:TX:a:t=12	!	!LO:TX:a:t=12	!	!LO:TX:a:t=12	!	!LO:TX:a:t=12	!	!	!	!LO:TX:a:t=1.
!	!	!	!	!LO:TX:b:t=Simf.	!LO:TX:b:t=Simf.	!LO:TX:b:t=Simf.	!LO:TX:b:t=Simf.	!LO:TX:b:t=Simf.	!LO:TX:b:t=Simf.	!	!LO:TX:b:t=Simf.	!	!	!	!	!	!	!	!	!	!	!	!	!	!	!	!
!	!	!	!	!	!	!	!	!	!	!	!	!	!	!	!	!	!LO:TX:b:t=Smf.	!	!	!	!	!	!	!	!LO:TX:b:t=Smf.	!LO:TX:b:t=Sinfonia	!LO:TX:b:t=Sinfonia
2.D/	-	2.D/	-	2.D/	2.A/	4.fny\	4.d/	1r	00r	.	00r	.	00r	.	00r	.	00r	.	00r	.	00r	.	00r	.	2.D/	4.d/	1r
.	.	.	.	.	.	8e\	8e/	.	.	.	.	.	.	.	.	.	.	.	.	.	.	.	.	.	.	8e/	.
!	!	!	!	!	!	!	!LO:LB:g=original	!	!	!	!	!	!	!	!	!	!	!	!	!	!	!	!	!	!	!	!
.	.	.	.	.	.	4d\	8f/L	.	.	.	.	.	.	.	.	.	.	.	.	.	.	.	.	.	.	8f/L	.
.	.	.	.	.	.	.	8d/J	.	.	.	.	.	.	.	.	.	.	.	.	.	.	.	.	.	.	8d/J	.
!LO:TX:t=P:problem:kreska pseudotaktowa	!	!LO:TX:t=P:problem:kreska pseudotaktowa	!	!LO:TX:t=P:problem:kreska pseudotaktowa	!LO:TX:t=P:problem:kreska pseudotaktowa	!LO:TX:t=P:problem:kreska pseudotaktowa	!	!	!	!	!	!	!	!	!	!	!	!	!	!	!	!	!	!	!LO:TX:t=P:problem:kreska pseudotaktowa	!	!
4C#X/	6	4C#X/	6	4C#X/	4A/	4e\	16a\LL	.	.	.	.	.	.	.	.	.	.	.	.	.	.	.	.	.	4C#X/	16a/LL	.
.	.	.	.	.	.	.	16e\	.	.	.	.	.	.	.	.	.	.	.	.	.	.	.	.	.	.	16e/	.
.	.	.	.	.	.	.	16f\	.	.	.	.	.	.	.	.	.	.	.	.	.	.	.	.	.	.	16f/	.
!	!	!	!	!	!	!	!LO:TX:t=P:problem:kreska pseudotaktowa	!	!	!	!	!	!	!	!	!	!	!	!	!	!	!	!	!	!	!LO:TX:t=P:problem:kreska pseudotaktowa	!
.	.	.	.	.	.	.	16g\JJ	.	.	.	.	.	.	.	.	.	.	.	.	.	.	.	.	.	.	16g/JJ	.
2D/	6 5	2D/	6 5	4.D/	2.A/	2d\	8f/L	4r	.	.	.	.	.	.	.	.	.	.	.	.	.	.	.	.	2D/	8f/L	4r
.	.	.	.	.	.	.	16d/L	.	.	.	.	.	.	.	.	.	.	.	.	.	.	.	.	.	.	16d/L	.
.	.	.	.	.	.	.	16e/JJ	.	.	.	.	.	.	.	.	.	.	.	.	.	.	.	.	.	.	16e/JJ	.
.	.	.	.	.	.	.	8f/L	8a/L	.	.	.	.	.	.	.	.	.	.	.	.	.	.	.	.	.	8f/L	8a/L
.	.	.	.	8D/	.	.	8g/J	8bny/J	.	.	.	.	.	.	.	.	.	.	.	.	.	.	.	.	.	8g/J	8bny/J
4C#/	6	4C#/	6	4C#/	.	4e\	4.a\	8cc/L	.	.	.	.	.	.	.	.	.	.	.	.	.	.	.	.	4C#/	4.a\	8cc/L
.	.	.	.	.	.	.	.	8a/J	.	.	.	.	.	.	.	.	.	.	.	.	.	.	.	.	.	.	8a/J
!	!	!	!	!	!	!	!	!	!	!	!	!	!	!	!	!	!	!	!	!	!	!	!	!	!	!	!LO:LB:g=original
!LO:TX:t=P:problem:kreska pseudotaktowa	!	!LO:TX:t=P:problem:kreska pseudotaktowa	!	!LO:TX:t=P:problem:kreska pseudotaktowa	!LO:TX:t=P:problem:kreska pseudotaktowa	!	!	!	!	!	!	!	!	!	!	!	!	!	!	!	!	!	!	!	!LO:TX:t=P:problem:kreska pseudotaktowa	!	!
4BBny/	7:6	4BBny/	7:6	4BBny/	4Bny\	4d\	.	16dd\LL	.	.	.	.	.	.	.	.	.	.	.	.	.	.	.	.	4BBny/	.	16dd\LL
.	.	.	.	.	.	.	.	16b\	.	.	.	.	.	.	.	.	.	.	.	.	.	.	.	.	.	.	16b\
!	!	!	!	!	!	!	!LO:TX:t=P:problem:kreska pseudotaktowa	!	!	!	!	!	!	!	!	!	!	!	!	!	!	!	!	!	!	!LO:TX:t=P:problem:kreska pseudotaktowa	!
.	.	.	.	.	.	.	8g#X/	16cc\	.	.	.	.	.	.	.	.	.	.	.	.	.	.	.	.	.	8g#X/	16cc\
!	!	!	!	!	!	!	!	!LO:TX:t=P:problem:kreska pseudotaktowa	!	!	!	!	!	!	!	!	!	!	!	!	!	!	!	!	!	!	!LO:TX:t=P:problem:kreska pseudotaktowa
.	.	.	.	.	.	.	.	16dd\JJ	.	.	.	.	.	.	.	.	.	.	.	.	.	.	.	.	.	.	16dd\JJ
!	!	!	!	!LO:LB:g=original	!LO:LB:g=original	!	!	!LO:LB:g=original	!	!	!	!	!	!	!	!	!	!	!	!	!	!	!	!	!	!	!
=17-	=17-	=17-	=17-	=17-	=17-	=17-	=17-	=17-	=17-	=17-	=17-	=17-	=17-	=17-	=17-	=17-	=17-	=17-	=17-	=17-	=17-	=17-	=17-	=17-	=17-	=17-	=17-
!	!	!	!	!	!	!LO:TX:t=P:problem:kreska pseudotaktowa	!	!	!	!	!	!	!	!	!	!	!	!	!	!	!	!	!	!	!	!	!
2AA/	-	2AA/	-	2AA/	4E/	1e	2a\	8cc\L	.	.	.	.	.	.	.	.	.	.	.	.	.	.	.	.	2AA/	2a\	8cc\L
.	.	.	.	.	.	.	.	8a\J	.	.	.	.	.	.	.	.	.	.	.	.	.	.	.	.	.	.	8a\J
.	.	.	.	.	4c\	.	.	4.ee\	.	.	.	.	.	.	.	.	.	.	.	.	.	.	.	.	.	.	4.ee\
!	!	!	!	!LO:TX:t=P:problem:kreska pseudotaktowa	!LO:TX:t=P:problem:kreska pseudotaktowa	!	!	!	!	!	!	!	!	!	!	!	!	!	!	!	!	!	!	!	!LO:TX:t=P:problem:kreska pseudotaktowa	!	!
2GG#X/	6 5	2GG#X/	6 5	2GG#X/	2B\	.	4bny\L	.	.	.	.	.	.	.	.	.	.	.	.	.	.	.	.	.	2GG#X/	4bny\	.
.	.	.	.	.	.	.	.	8dd\	.	.	.	.	.	.	.	.	.	.	.	.	.	.	.	.	.	.	8dd\
!	!	!	!	!	!	!	!LO:TX:t=P:problem:kreska pseudotaktowa	!LO:TX:t=P:problem:kreska pseudotaktowa	!	!	!	!	!	!	!	!	!	!	!	!	!	!	!	!	!	!LO:TX:t=P:problem:kreska pseudotaktowa	!LO:TX:t=P:problem:kreska pseudotaktowa
.	.	.	.	.	.	.	4.b\	4.dd\	.	.	.	.	.	.	.	.	.	.	.	.	.	.	.	.	.	4.b\	4.dd\
4AA/	-	4AA/	-	4AA/	4E/	4e\	.	.	.	.	.	.	.	.	.	.	.	.	.	.	.	.	.	.	4AA/	.	.
!	!	!	!	!	!	!	!	!	!	!	!	!	!	!	!	!	!	!	!	!	!	!	!	!	!	!LO:LB:g=original	!
.	.	.	.	.	.	.	8a\JLJ	8cc\	.	.	.	.	.	.	.	.	.	.	.	.	.	.	.	.	.	8a\	8cc\
4F\	.	4F\	.	4FF/	4A/	4.f\	2a\	8cc\L	.	.	.	.	.	.	.	.	.	.	.	.	.	.	.	.	4F\	2a\	8cc\L
.	.	.	.	.	.	.	.	8b\J	.	.	.	.	.	.	.	.	.	.	.	.	.	.	.	.	.	.	8b\J
!	!	!	!	!	!LO:TX:t=P:problem:kreska pseudotaktowa	!	!	!LO:TX:t=P:problem:kreska pseudotaktowa	!	!	!	!	!	!	!	!	!	!	!	!	!	!	!	!	!	!	!LO:TX:t=P:problem:kreska pseudotaktowa
4D/	6 5	4D/	6 5	4DD/	2B\	.	.	2b/	.	.	.	.	.	.	.	.	.	.	.	.	.	.	.	.	4D/	.	2b/
.	.	.	.	.	.	8f\	.	.	.	.	.	.	.	.	.	.	.	.	.	.	.	.	.	.	.	.	.
!LO:TX:t=P:problem:kreska pseudotaktowa	!	!LO:TX:t=P:problem:kreska pseudotaktowa	!	!LO:TX:t=P:problem:kreska pseudotaktowa	!	!	!LO:TX:t=P:problem:kreska pseudotaktowa	!	!	!	!	!	!	!	!	!	!	!	!	!	!	!	!	!	!LO:TX:t=P:problem:kreska pseudotaktowa	!LO:TX:t=P:problem:kreska pseudotaktowa	!
4E\	#	4E\	#	4EE/	.	4e\	4g#X/J	.	.	.	.	.	.	.	.	.	.	.	.	.	.	.	.	.	4E\	4g#X/	.
!	!	!	!	!	!	!LO:LB:g=original	!	!	!	!	!	!	!	!	!	!	!	!	!	!	!	!	!	!	!	!	!
=18-	=18-	=18-	=18-	=18-	=18-	=18-	=18-	=18-	=18-	=18-	=18-	=18-	=18-	=18-	=18-	=18-	=18-	=18-	=18-	=18-	=18-	=18-	=18-	=18-	=18-	=18-	=18-
!LO:SIC:v:t=custos AA	!	!	!	!	!	!	!	!	!	!	!	!	!	!	!	!	!	!	!	!	!	!	!	!	!	!	!
2.AA/	-	2.AA/	-	2.AA/	2.c\	2.e\	4a\	4a/	00r	.	00r	.	00r	.	00r	.	00r	.	00r	.	00r	.	00r	.	2.AA/	4a\	4a/
.	.	.	.	.	.	.	8ccny\L	8.ee\L	.	.	.	.	.	.	.	.	.	.	.	.	.	.	.	.	.	8cnyc\L	8.ee\L
.	.	.	.	.	.	.	8b\J	.	.	.	.	.	.	.	.	.	.	.	.	.	.	.	.	.	.	8b\	.
.	.	.	.	.	.	.	.	16dd\Jk	.	.	.	.	.	.	.	.	.	.	.	.	.	.	.	.	.	.	16dd\Jk
.	.	.	.	.	.	.	8a\L	8.cc\L	.	.	.	.	.	.	.	.	.	.	.	.	.	.	.	.	.	8a\	8.cc\L
.	.	.	.	.	.	.	8gny\J	.	.	.	.	.	.	.	.	.	.	.	.	.	.	.	.	.	.	8gny\	.
.	.	.	.	.	.	.	.	16b\Jk	.	.	.	.	.	.	.	.	.	.	.	.	.	.	.	.	.	.	16b\Jk
!	!	!	!	!	!	!LO:TX:t=P:problem:kreska pseudotaktowa	!	!	!	!	!	!	!	!	!	!	!	!	!	!	!	!	!	!	!	!	!LO:TX:t=P:problem:kreska pseudotaktowa
8D/L	-	8D/L	-	8D/L	8d\L	4e\	8f\L	8a\L	.	.	.	.	.	.	.	.	.	.	.	.	.	.	.	.	8D/L	8f\	8a\L
!LO:TX:t=P:problem:kreska pseudotaktowa	!	!LO:TX:t=P:problem:kreska pseudotaktowa	!	!LO:TX:t=P:problem:kreska pseudotaktowa	!LO:TX:t=P:problem:kreska pseudotaktowa	!	!LO:TX:t=P:problem:kreska pseudotaktowa	!LO:TX:t=P:problem:kreska pseudotaktowa	!	!	!	!	!	!	!	!	!	!	!	!	!	!	!	!	!LO:TX:t=P:problem:kreska pseudotaktowa	!LO:TX:t=P:problem:kreska pseudotaktowa	!
8AA/J	.	8AA/J	.	8AA/J	8c\J	.	8a\J	8cc\J	.	.	.	.	.	.	.	.	.	.	.	.	.	.	.	.	8AA/J	8a\J	8cc\J
4BB-X/	6	4BB-X/	6	4BB-X/	4d\	4d\	8g/	4b-X/	.	.	.	.	.	.	.	.	.	.	.	.	.	.	.	.	4BB-X/	8g/	4b-X/
*	*	*	*	*	*	*	*clefG2	*	*	*	*	*	*	*	*	*	*	*	*	*	*	*	*	*	*	*clefG2	*
.	.	.	.	.	.	.	8ee\	.	.	.	.	.	.	.	.	.	.	.	.	.	.	.	.	.	.	8gg\	.
4FF/	.	4FF/	.	4FF/	4A/	4cny/	2dd\	4a/	.	.	.	.	.	.	.	.	.	.	.	.	.	.	.	.	4FF/	2ff\	4a/
!	!	!	!	!	!	!	!	!LO:TX:t=P:problem:kreska pseudotaktowa	!	!	!	!	!	!	!	!	!	!	!	!	!	!	!	!	!	!	!LO:TX:t=P:problem:kreska pseudotaktowa
4BB-X/	6 5	4BB-X/	6 5	4BB-X/	8d\	4d\	.	2g/	.	.	.	.	.	.	.	.	.	.	.	.	.	.	.	.	4BB-X/	.	2g/
.	.	.	.	.	4G/	.	.	.	.	.	.	.	.	.	.	.	.	.	.	.	.	.	.	.	.	.	.
!LO:TX:t=P:problem:kreska pseudotaktowa	!	!LO:TX:t=P:problem:kreska pseudotaktowa	!	!LO:TX:t=P:problem:kreska pseudotaktowa	!	!	!LO:TX:t=P:problem:kreska pseudotaktowa	!	!	!	!	!	!	!	!	!	!	!	!	!	!	!	!	!	!LO:TX:t=P:problem:kreska pseudotaktowa	!LO:TX:t=P:problem:kreska pseudotaktowa	!
4Cny/	.	4Cny/	.	4Cny/	.	4c/	4cc\	.	.	.	.	.	.	.	.	.	.	.	.	.	.	.	.	.	4C/	4ee\	.
.	.	.	.	.	16c\LL	.	.	.	.	.	.	.	.	.	.	.	.	.	.	.	.	.	.	.	.	.	.
!	!	!	!	!	!LO:TX:t=P:problem:kreska pseudotaktowa	!	!	!	!	!	!	!	!	!	!	!	!	!	!	!	!	!	!	!	!	!	!
.	.	.	.	.	16B-X\JJ	.	.	.	.	.	.	.	.	.	.	.	.	.	.	.	.	.	.	.	.	.	.
=19-	=19-	=19-	=19-	=19-	=19-	=19-	=19-	=19-	=19-	=19-	=19-	=19-	=19-	=19-	=19-	=19-	=19-	=19-	=19-	=19-	=19-	=19-	=19-	=19-	=19-	=19-	=19-
!	!	!	!	!	!	!LO:TX:t=P:problem:kreska pseudotaktowa	!	!	!	!	!	!	!	!	!	!	!	!	!	!	!	!	!	!	!	!	!
2FF/	.	2FF/	.	2FF/	2A/	1c	3...ff\	4f/	.	.	.	.	.	.	.	.	.	.	.	.	.	.	.	.	2FF/	3...ff\	4f/
!	!	!	!	!	!	!	!LO:LB:g=original	!	!	!	!	!	!	!	!	!	!	!	!	!	!	!	!	!	!	!	!
.	.	.	.	.	.	.	.	4.a/	.	.	.	.	.	.	.	.	.	.	.	.	.	.	.	.	.	.	4.a/
!LO:TX:t=P:problem:kreska pseudotaktowa	!	!LO:TX:t=P:problem:kreska pseudotaktowa	!	!LO:TX:t=P:problem:kreska pseudotaktowa	!LO:TX:t=P:problem:kreska pseudotaktowa	!	!	!	!	!	!	!	!	!	!	!	!	!	!	!	!	!	!	!	!	!	!
2C/	4:3	2C/	4:3	2C/	2c\	.	.	.	.	.	.	.	.	.	.	.	.	.	.	.	.	.	.	.	2C/	.	.
.	.	.	.	.	.	.	8ee\J	8g/	.	.	.	.	.	.	.	.	.	.	.	.	.	.	.	.	.	8ee\J	8g/
!	!	!	!	!	!	!	!LO:TX:t=P:problem:kreska pseudotaktowa	!LO:TX:t=P:problem:kreska pseudotaktowa	!	!	!	!	!	!	!	!	!	!	!	!	!	!	!	!	!	!LO:TX:t=P:problem:kreska pseudotaktowa	!LO:TX:t=P:problem:kreska pseudotaktowa
.	.	.	.	.	.	.	4.ee\	4.g/	.	.	.	.	.	.	.	.	.	.	.	.	.	.	.	.	.	4.ee\	4.g/
!	!	!	!	!	!	!LO:TX:t=P:problem:mixed beam	!	!	!	!	!	!	!	!	!	!	!	!	!	!	!	!	!	!	!	!	!
4D/	7:8	4D/	7:8	4D/	4.Fny/	8A/L	.	.	.	.	.	.	.	.	.	.	.	.	.	.	.	.	.	.	4D/	.	.
!	!	!	!	!	!	!	!	!	!	!	!	!	!	!	!	!	!	!	!	!	!	!	!	!	!	!	!LO:SIC:v:t=custos f
.	.	.	.	.	.	8a\J	8dd\	8f/J	.	.	.	.	.	.	.	.	.	.	.	.	.	.	.	.	.	8dd\J	8f/J
4BB-X/	.	4BB-X/	.	4BB-X/	.	2b-X\	2dd\	8f/L	.	.	.	.	.	.	.	.	.	.	.	.	.	.	.	.	4BB-X/	2dd\	8f/L
.	.	.	.	.	8F/	.	.	8e/J	.	.	.	.	.	.	.	.	.	.	.	.	.	.	.	.	.	.	8e/J
!	!	!	!	!	!	!	!	!LO:TX:t=P:problem:kreska pseudotaktowa	!	!	!	!	!	!	!	!	!	!	!	!	!	!	!	!	!	!	!LO:TX:t=P:problem:kreska pseudotaktowa
4GGny/	.	4GGny/	.	4GGny/	4G/	.	.	2e/	.	.	.	.	.	.	.	.	.	.	.	.	.	.	.	.	4GGny/	.	2e/
!LO:TX:t=P:problem:kreska pseudotaktowa	!	!LO:TX:t=P:problem:kreska pseudotaktowa	!	!LO:TX:t=P:problem:kreska pseudotaktowa	!LO:TX:t=P:problem:kreska pseudotaktowa	!LO:TX:t=P:problem:kreska pseudotaktowa	!LO:TX:t=P:problem:kreska pseudotaktowa	!	!	!	!	!	!	!	!	!	!	!	!	!	!	!	!	!	!LO:TX:t=P:problem:kreska pseudotaktowa	!LO:TX:t=P:problem:kreska pseudotaktowa	!
4AA/	6 5	4AA/	6 5	4AA/	4E/	4a\	4cc#X\	.	.	.	.	.	.	.	.	.	.	.	.	.	.	.	.	.	4AA/	4cc#X\	.
=20-	=20-	=20-	=20-	=20-	=20-	=20-	=20-	=20-	=20-	=20-	=20-	=20-	=20-	=20-	=20-	=20-	=20-	=20-	=20-	=20-	=20-	=20-	=20-	=20-	=20-	=20-	=20-
2D/	.	2D/	.	2D/	4.F/	4a\	4dd\	4d/	00r	.	00r	.	00r	.	00r	.	00r	.	00r	.	00r	.	00r	.	2D/	4dd\	4d/
.	.	.	.	.	.	4f\	4.ff\	8.aa\L	.	.	.	.	.	.	.	.	.	.	.	.	.	.	.	.	.	4.ff\	8.aa\L
.	.	.	.	.	8A/	.	.	.	.	.	.	.	.	.	.	.	.	.	.	.	.	.	.	.	.	.	.
.	.	.	.	.	.	.	.	16gg\Jk	.	.	.	.	.	.	.	.	.	.	.	.	.	.	.	.	.	.	16gg\Jk
!	!	!	!	!	!	!	!	!LO:TX:t=P:problem:kreska pseudotaktowa	!	!	!	!	!	!	!	!	!	!	!	!	!	!	!	!	!	!	!LO:TX:t=P:problem:kreska pseudotaktowa
!	!	!	!	!	!	!	!	!LO:SIC:v:t=custos gg	!	!	!	!	!	!	!	!	!	!	!	!	!	!	!	!	!	!	!
!	!	!	!	!	!	!	!	!LO:LB:g=original	!	!	!	!	!	!	!	!	!	!	!	!	!	!	!	!	!	!	!
4BBny/	.	4BBny/	.	4BBny/	4Bny\	4g\	.	3...gg\	.	.	.	.	.	.	.	.	.	.	.	.	.	.	.	.	4BB/	.	3...gg\
.	.	.	.	.	.	.	8ee\	.	.	.	.	.	.	.	.	.	.	.	.	.	.	.	.	.	.	8ee\	.
!LO:TX:t=P:problem:kreska pseudotaktowa	!	!LO:TX:t=P:problem:kreska pseudotaktowa	!	!LO:TX:t=P:problem:kreska pseudotaktowa	!LO:TX:t=P:problem:kreska pseudotaktowa	!LO:TX:t=P:problem:kreska pseudotaktowa	!LO:TX:t=P:problem:kreska pseudotaktowa	!	!	!	!	!	!	!	!	!	!	!	!	!	!	!	!	!	!LO:TX:t=P:problem:kreska pseudotaktowa	!LO:TX:t=P:problem:kreska pseudotaktowa	!
4C#X/	6 5	4C#X/	6 5	4C#X/	4A/	4a\	4.ee\	.	.	.	.	.	.	.	.	.	.	.	.	.	.	.	.	.	4C#X/	4.ee\	.
!LO:LB:g=original	!	!LO:LB:g=original	!	!	!	!	!	!	!	!	!	!	!	!	!	!	!	!	!	!	!	!	!	!	!	!	!
2D/	.	2D/	.	2D/	2A/	2a\	.	.	.	.	.	.	.	.	.	.	.	.	.	.	.	.	.	.	2D/	.	.
.	.	.	.	.	.	.	8dd\	8ff\J	.	.	.	.	.	.	.	.	.	.	.	.	.	.	.	.	.	8dd\J	8ff\J
.	.	.	.	.	.	.	4.aa\	4.ff\	.	.	.	.	.	.	.	.	.	.	.	.	.	.	.	.	.	4.aa\	4.ff\
!	!	!	!	!	!	!	!	!	!	!	!	!	!	!	!	!	!	!	!	!	!	!	!	!	!	!LO:LB:g=original	!
!LO:TX:t=P:problem:kreska pseudotaktowa	!	!LO:TX:t=P:problem:kreska pseudotaktowa	!	!LO:TX:t=P:problem:kreska pseudotaktowa	!	!	!	!	!	!	!	!	!	!	!	!	!	!	!	!	!	!	!	!	!LO:TX:t=P:problem:kreska pseudotaktowa	!	!
!LO:TX:a:t=Sinphfonia	!	!LO:TX:a:t=Sinphfonia	!	!	!	!	!	!	!	!	!	!	!	!	!	!	!	!	!	!	!	!	!	!	!	!	!
!	!	!	!	!LO:SIC:v:t=custos G	!	!	!	!	!	!	!	!	!	!	!	!	!	!	!	!	!	!	!	!	!	!	!
2GG/	5 -3	2GG/	5 -3	2Gny\	4.G/	2b-X\	.	.	.	.	.	.	.	.	.	.	.	.	.	.	.	.	.	.	2GG/	.	.
.	.	.	.	.	.	.	8gg\	8ee\	.	.	.	.	.	.	.	.	.	.	.	.	.	.	.	.	.	8gg\	8ee\
!	!	!	!	!	!	!	!LO:TX:t=P:problem:kreska pseudotaktowa	!	!	!	!	!	!	!	!	!	!	!	!	!	!	!	!	!	!	!LO:TX:t=P:problem:kreska pseudotaktowa	!
.	.	.	.	.	.	.	4.gg\	16ee\LL	.	.	.	.	.	.	.	.	.	.	.	.	.	.	.	.	.	4.gg\	16ee\LL
.	.	.	.	.	.	.	.	16ff\	.	.	.	.	.	.	.	.	.	.	.	.	.	.	.	.	.	.	16ff\
!	!	!	!	!	!LO:TX:t=P:problem:kreska pseudotaktowa	!	!	!	!	!	!	!	!	!	!	!	!	!	!	!	!	!	!	!	!	!	!
.	.	.	.	.	8d\	.	.	16dd\	.	.	.	.	.	.	.	.	.	.	.	.	.	.	.	.	.	.	16dd\
!	!	!	!	!	!	!	!	!LO:TX:t=P:problem:kreska pseudotaktowa	!	!	!	!	!	!	!	!	!	!	!	!	!	!	!	!	!	!	!LO:TX:t=P:problem:kreska pseudotaktowa
.	.	.	.	.	.	.	.	16ee\JJ	.	.	.	.	.	.	.	.	.	.	.	.	.	.	.	.	.	.	16ee\JJ
!	!	!	!	!	!	!	!	!	!	!	!	!	!	!	!	!	!	!	!	!	!	!	!	!	!LO:LB:g=original	!	!
=21-	=21-	=21-	=21-	=21-	=21-	=21-	=21-	=21-	=21-	=21-	=21-	=21-	=21-	=21-	=21-	=21-	=21-	=21-	=21-	=21-	=21-	=21-	=21-	=21-	=21-	=21-	=21-
4AA/	#	4AA/	#	4A\	2.A/	1a	.	8cc#X\L	.	.	.	.	.	.	.	.	.	.	.	.	.	.	.	.	4AA/	.	8cc#X\L
.	.	.	.	.	.	.	8ff\	8a\J	.	.	.	.	.	.	.	.	.	.	.	.	.	.	.	.	.	8ff\	8a\J
4D/	.	4D/	.	4D/	.	.	8ff\L	2dd\	.	.	.	.	.	.	.	.	.	.	.	.	.	.	.	.	4D/	8ff\L	2dd\
.	.	.	.	.	.	.	8ee\J	.	.	.	.	.	.	.	.	.	.	.	.	.	.	.	.	.	.	8ee\J	.
2AA/	#	2AA/	#	2AA/	.	.	2ee\	.	.	.	.	.	.	.	.	.	.	.	.	.	.	.	.	.	2AA/	2ee\	.
!	!	!	!	!	!	!	!	!LO:TX:t=P:problem:kreska pseudotaktowa	!	!	!	!	!	!	!	!	!	!	!	!	!	!	!	!	!	!	!LO:TX:t=P:problem:kreska pseudotaktowa
.	.	.	.	.	16A/LL	.	.	4cc#X\	.	.	.	.	.	.	.	.	.	.	.	.	.	.	.	.	.	.	4cc#X\
.	.	.	.	.	16G/	.	.	.	.	.	.	.	.	.	.	.	.	.	.	.	.	.	.	.	.	.	.
.	.	.	.	.	16F/	.	.	.	.	.	.	.	.	.	.	.	.	.	.	.	.	.	.	.	.	.	.
!	!	!	!	!	!LO:LB:g=original	!	!	!	!	!	!	!	!	!	!	!	!	!	!	!	!	!	!	!	!	!	!
.	.	.	.	.	16E/JJ	.	.	.	.	.	.	.	.	.	.	.	.	.	.	.	.	.	.	.	.	.	.
1D;	.	1D;	.	1D;	1F;	1a;	1dd;	1dd;	.	.	.	.	.	.	.	.	.	.	.	.	.	.	.	.	1D;	1dd;	1dd;
*	*	*	*	*	*	*	*clefC1	*clefC1	*	*	*	*	*	*	*	*	*	*	*	*	*	*	*	*	*	*clefC1	*clefC1
*	*	*	*	*	*	*	*met(c)	*	*	*	*	*	*	*	*	*	*	*	*	*	*	*	*	*	*	*	*
!	!	!	!	!LO:LB:g=original	!	!	!	!	!	!	!	!	!	!	!	!	!	!	!	!	!	!	!	!	!	!	!
=22||-	=22||-	=22||-	=22||-	=22||-	=22||-	=22||-	=22||-	=22||-	=22||-	=22||-	=22||-	=22||-	=22||-	=22||-	=22||-	=22||-	=22||-	=22||-	=22||-	=22||-	=22||-	=22||-	=22||-	=22||-	=22||-	=22||-	=22||-
!	!	!	!	!LO:TX:a:t=2	!LO:TX:a:t=2	!LO:TX:a:t=2	!LO:TX:a:t=2	!LO:TX:a:t=2	!	!	!	!	!LO:TX:b:t=a4	!	!	!	!LO:TX:a:t=2	!	!LO:TX:a:t=2	!	!LO:TX:a:t=2	!	!LO:TX:a:t=2	!	!	!LO:TX:a:t=2	!LO:TX:a:t=2
!	!	!	!	!	!LO:TX:b:t=Kyrie	!LO:TX:b:t=Kyrie	!LO:TX:b:t=Kyrie	!LO:TX:b:t=Kyrie	!	!	!	!	!	!	!	!	!	!	!	!	!	!	!	!	!	!	!
!	!	!	!	!	!	!	!	!	!	!	!	!	!	!	!	!	!	!	!	!	!	!	!	!	!LO:TX:b:t=a4	!	!
!	!	!	!	!	!	!	!	!	!	!	!	!	!	!	!	!	!	!	!	!	!	!	!	!	!LO:TX:b:t=Kyrie	!LO:TX:b:t=Kyrie	!
4.D/	#	4.D/	#	0r	0r	0r	0r	0r	4.D/	Ky-	2r	.	4.fny\	Ky-	4.a\	Ky-	0r	.	0r	.	0r	.	0r	.	4.D/	0r	1r
8E\	.	8E\	.	.	.	.	.	.	8E\	-ri-	.	.	8e\	-ri-	8g\	-ri-	.	.	.	.	.	.	.	.	8E\	.	.
8F\L	6	8F\L	6	.	.	.	.	.	8F\	-e	4r	.	8d\	-e	4f/	-e	.	.	.	.	.	.	.	.	8F\L	.	.
8D\J	.	8D\J	.	.	.	.	.	.	8D/	e-	.	.	8d\	e-	.	.	.	.	.	.	.	.	.	.	8D\J	.	.
!LO:TX:t=P:problem:kreska pseudotaktowa	!	!LO:TX:t=P:problem:kreska pseudotaktowa	!	!	!	!	!	!	!LO:TX:t=P:problem:kreska pseudotaktowa	!	!	!	!	!	!	!	!	!	!	!	!	!	!	!	!LO:TX:t=P:problem:kreska pseudotaktowa	!	!
*	*	*	*	*	*	*	*	*	*	*	*	*	*	*	*	*ij	*	*	*	*	*	*	*	*	*	*	*
4A\	4:3 #	4A\	4:3 #	.	.	.	.	.	4A\	-lei-	8.A/	Ky-	8.d\	-lei-	8e/	Ky-	.	.	.	.	.	.	.	.	4A\	.	.
!	!	!	!	!	!	!	!	!	!	!	!	!	!	!	!LO:TX:t=P:problem:kreska pseudotaktowa	!	!	!	!	!	!	!	!	!	!	!	!
.	.	.	.	.	.	.	.	.	.	.	.	.	.	.	8e/	-ri-	.	.	.	.	.	.	.	.	.	.	.
!	!	!	!	!	!	!	!	!	!	!	!LO:TX:t=P:problem:kreska pseudotaktowa	!	!LO:TX:t=P:problem:kreska pseudotaktowa	!	!	!	!	!	!	!	!	!	!	!	!	!	!
.	.	.	.	.	.	.	.	.	.	.	16G/	-ri-	16c#X/	.	.	.	.	.	.	.	.	.	.	.	.	.	.
!	!	!LO:TX:t=P:problem:kreska pseudotaktowa	!	!	!	!	!	!	!	!	!	!	!	!	!	!	!	!	!	!	!	!	!	!	!LO:TX:t=P:problem:kreska pseudotaktowa	!	!
!	!	!	!	!	!	!	!	!	!	!	!	!	!	!	!LO:LB:g=original	!	!	!	!	!	!	!	!	!	!	!	!
4D/	.	4D/	-	.	.	.	.	.	2D/	-ſon.	(8F/L	-e	4d\	-ſon	4d/	-e	.	.	.	.	.	.	.	.	4D/	.	1r
*	*	*	*	*	*	*	*	*	*	*	*	*	*	*	*	*Xij	*	*	*	*	*	*	*	*	*	*	*
.	.	.	.	.	.	.	.	.	.	.	8D/J)	.	.	.	.	.	.	.	.	.	.	.	.	.	.	.	.
*clefC4	*	*clefC4	*	*	*	*	*	*	*	*	*	*	*	*	*	*	*	*	*	*	*	*	*	*	*clefC4	*	*
4d\	6	4d\	6	.	.	.	.	.	.	.	8.d\	Ky-	8.f\	Ky-	8.a\	Ky-	.	.	.	.	.	.	.	.	4d\	.	.
.	.	.	.	.	.	.	.	.	.	.	16d\	-ri-	16g\	-ri-	16b\	-ri-	.	.	.	.	.	.	.	.	.	.	.
!	!	!	!	!	!	!	!	!	!LO:TX:t=P:problem:kreska pseudotaktowa	!	!	!	!	!	!	!	!	!	!	!	!	!	!	!	!	!	!
4c\	7	4c\	7	.	.	.	.	.	2r	.	4c\	-e	4.a\	-e	8ccny\L	-e	.	.	.	.	.	.	.	.	4c\	.	.
.	.	.	.	.	.	.	.	.	.	.	.	.	.	.	8a\J	.	.	.	.	.	.	.	.	.	.	.	.
!LO:TX:t=P:problem:kreska pseudotaktowa	!	!LO:TX:t=P:problem:kreska pseudotaktowa	!	!	!	!	!	!	!	!	!LO:TX:t=P:problem:kreska pseudotaktowa	!	!	!	!	!	!	!	!	!	!	!	!	!	!LO:TX:t=P:problem:kreska pseudotaktowa	!	!
4B\	6	4Bny\	6	.	.	.	.	.	.	.	4B\	e-	.	.	16dd\LL	.	.	.	.	.	.	.	.	.	4Bny\	.	.
.	.	.	.	.	.	.	.	.	.	.	.	.	.	.	16b\	.	.	.	.	.	.	.	.	.	.	.	.
!	!	!	!	!	!	!	!	!	!	!	!	!	!LO:TX:t=P:problem:kreska pseudotaktowa	!	!	!	!	!	!	!	!	!	!	!	!	!	!
.	.	.	.	.	.	.	.	.	.	.	.	.	8g#X\	lei-	16cc\	.	.	.	.	.	.	.	.	.	.	.	.
!	!	!	!	!	!	!	!	!	!	!	!	!	!	!	!LO:TX:t=P:problem:kreska pseudotaktowa	!	!	!	!	!	!	!	!	!	!	!	!
.	.	.	.	.	.	.	.	.	.	.	.	.	.	.	16dd\JJ	.	.	.	.	.	.	.	.	.	.	.	.
=23-	=23-	=23-	=23-	=23-	=23-	=23-	=23-	=23-	=23-	=23-	=23-	=23-	=23-	=23-	=23-	=23-	=23-	=23-	=23-	=23-	=23-	=23-	=23-	=23-	=23-	=23-	=23-
4A/	.	4A/	.	4r	2.A/	8a\L	4r	4r	4r	.	2.A/	-lei-	(2a\	-ſon	2.cc\	e-	4r	.	4r	.	8a\	Ky-	4r	.	4A/	4r	4r
!	!	!	!	!	!	!	!	!	!	!	!	!	!LO:LB:g=original	!	!	!	!	!	!	!	!	!	!	!	!	!	!
.	.	.	.	.	.	16g\L	.	.	.	.	.	.	.	.	.	.	.	.	.	.	16g\	-ri-	.	.	.	.	.
.	.	.	.	.	.	16f\JJ	.	.	.	.	.	.	.	.	.	.	.	.	.	.	16f\	-e	.	.	.	.	.
*clefF4	*	*clefF4	*	*	*	*	*	*	*	*	*	*	*	*	*	*	*	*	*	*	*	*	*	*	*clefF4	*	*
!LO:TX:b:t=tutti	!	!	!	!LO:TX:b:t=Kyrie	!	!	!	!	!	!	!	!	!	!	!	!	!	!	!	!	!	!	!	!	!	!	!
8AA/L	.	8AA/L	-	4.A\	.	4e\	8ee\L	4.ccny\	4.A\	Ky-	.	.	.	.	.	.	8.AA/	Ky-	8cny\	Ky-	8.e\	e-	8.ee\	Ky-	8AA/L	8ee\L	4.ccn\yy
!	!	!	!	!	!	!	!	!	!	!	!	!	!	!	!	!	!	!	!	!	!	!	!	!	!LO:TX:b:t=tutti	!	!
8BB/J	.	8BB/	.	.	.	.	8dd\J	.	.	.	.	.	.	.	.	.	.	.	8Bny\	-ri-	.	.	.	.	8BB/J	8dd\J	.
.	.	.	.	.	.	.	.	.	.	.	.	.	.	.	.	.	16BBny/	-ri-	.	.	16e\	-lei-	16dd\	-ri-	.	.	.
!	!	!	!	!	!	!LO:TX:t=P:problem:kreska pseudotaktowa	!	!	!	!	!	!	!	!	!	!	!	!	!	!	!LO:TX:t=P:problem:kreska pseudotaktowa	!	!	!	!	!	!
8C/L	6	8Cny/	6	.	.	2e\	4ccny\	.	.	.	.	.	8a\)	Ky-	.	.	8Cny/	-e	8.A/	-e	2e\	-ſon	4ccny\	-e	8Cny/L	4ccny\	.
8AA/J	.	8AA/J	.	8A\	.	.	.	8cc\	16A\	-ri-	.	.	16c/	-ri-	.	.	8AA/	e-	.	.	.	.	.	.	8AA/J	.	8cc\
.	.	.	.	.	.	.	.	.	16A\	-e	.	.	16d\	-e	.	.	.	.	16A/	e-	.	.	.	.	.	.	.
!	!	!	!	!	!	!	!	!	!	!	!	!	!	!	!	!	!	!	!	!	!	!	!	!	!	!	!LO:TX:b:t=volti presto
!	!	!	!	!LO:TX:t=P:problem:kreska pseudotaktowa	!LO:TX:t=P:problem:kreska pseudotaktowa	!	!LO:TX:t=P:problem:kreska pseudotaktowa	!LO:TX:t=P:problem:kreska pseudotaktowa	!	!	!LO:TX:t=P:problem:kreska pseudotaktowa	!	!	!	!LO:TX:t=P:problem:kreska pseudotaktowa	!	!LO:TX:t=P:problem:kreska pseudotaktowa	!	!LO:TX:t=P:problem:kreska pseudotaktowa	!	!	!	!	!	!LO:TX:t=P:problem:kreska pseudotaktowa	!LO:TX:t=P:problem:kreska pseudotaktowa	!LO:TX:t=P:problem:kreska pseudotaktowa
!	!	!	!	!	!	!	!	!	!	!	!	!	!	!	!	!	!	!	!	!	!	!	!	!	!	!	!LO:PB:g=original
4E\	.	4E\	.	4E\	4B\	.	4b\	4ee\	8.E\	e-	4B\	.	8.e\	e-	4ee\	-lei-	4E\	-lei-	4G#X/	-lei-	.	.	8.bny\	Ky-	4E\	4b\	4ee\
!	!	!	!	!	!	!	!	!	!LO:TX:t=P:problem:kreska pseudotaktowa	!	!	!	!LO:TX:t=P:problem:kreska pseudotaktowa	!	!	!	!	!	!	!	!	!	!LO:TX:t=P:problem:kreska pseudotaktowa	!	!	!	!
.	.	.	.	.	.	.	.	.	16E\	-lei-	.	.	16e\	-lei-	.	.	.	.	.	.	.	.	16b\	-ri-	.	.	.
2AA/	-	2AA/	-	2A\	2A/	2e\	4cc\	2ee\	2A\	-son	2A/	-ſon	2c/	-ſon	2ee\	-ſon	2AA/	-son	4A/	-ſon	4e\	Ky-	4cc\	-e	2AA/	4cc\	2ee\
.	.	.	.	.	.	.	4r	.	.	.	.	.	.	.	.	.	.	.	(16A\LL	Ky-	8e\	-ri-	(16cc\LL	e-	.	4r	.
!	!	!	!	!	!	!	!LO:LB:g=original	!	!LO:LB:g=original	!	!	!	!	!	!	!	!	!	!	!	!	!	!	!	!	!	!
.	.	.	.	.	.	.	.	.	.	.	.	.	.	.	.	.	.	.	16B-X\JJ)	.	.	.	16dd\JJ)	.	.	.	.
.	.	.	.	.	.	.	.	.	.	.	.	.	.	.	.	.	.	.	(16A/LL	-ri-	8e\	-e	(16cc\LL	.	.	.	.
.	.	.	.	.	.	.	.	.	.	.	.	.	.	.	.	.	.	.	16G#/JJ)	.	.	.	16b-X\JJ)	.	.	.	.
!	!	!	!	!	!	!	!	!	!	!	!	!	!	!	!	!	!	!	!LO:LB:g=original	!	!	!	!	!	!	!	!
!LO:TX:t=P:problem:kreska pseudotaktowa	!	!LO:TX:t=P:problem:kreska pseudotaktowa	!	!	!	!	!	!	!	!	!	!	!	!	!	!	!	!	!	!	!	!	!	!	!LO:TX:t=P:problem:kreska pseudotaktowa	!	!
*	*	*	*	*	*	*	*	*	*	*	*	*	*	*	*	*	*	*	*	*	*	*ij	*	*	*	*	*
2FF/	.	2FF/	.	4r	4r	4r	4r	4r	4r	.	4r	.	4r	.	4r	.	4r	.	(16F/LL	-e	4.f\	Ky-	16a\LL	.	2FF/	4r	4r
.	.	.	.	.	.	.	.	.	.	.	.	.	.	.	.	.	.	.	16E/	.	.	.	16g\	.	.	.	.
.	.	.	.	.	.	.	.	.	.	.	.	.	.	.	.	.	.	.	16F/	.	.	.	16a\	.	.	.	.
.	.	.	.	.	.	.	.	.	.	.	.	.	.	.	.	.	.	.	16G#/JJ)	.	.	.	16b-X\JJ	.	.	.	.
!	!	!	!	!LO:TX:t=P:problem:mixed beam	!	!	!	!	!	!	!	!	!	!	!	!	!	!	!LO:TX:t=P:problem:kreska pseudotaktowa	!	!	!	!	!	!	!	!
*	*	*	*	*	*	*	*	*	*	*	*	*	*	*ij	*	*	*	*	*	*	*	*	*	*	*	*	*
.	.	.	.	8F\L	8f\L	8f\LL	8a\L	8.a\L	8.F\	Ky-	8.f\	Ky-	8.f\	Ky-	8.a\	Ky-	8.FF/	Ky-	4A/	.	.	.	16cc\LL	.	.	8a\L	8.a\L
.	.	.	.	.	.	.	.	.	.	.	.	.	.	.	.	.	.	.	.	.	.	.	16b-X\	.	.	.	.
!	!	!	!	!LO:TX:t=P:problem:kreska pseudotaktowa	!LO:TX:t=P:problem:kreska pseudotaktowa	!LO:TX:t=P:problem:kreska pseudotaktowa	!LO:TX:t=P:problem:kreska pseudotaktowa	!	!	!	!	!	!	!	!	!	!	!	!	!	!LO:TX:t=P:problem:kreska pseudotaktowa	!	!	!	!	!LO:TX:t=P:problem:kreska pseudotaktowa	!
.	.	.	.	8FF/J	8e\J	8e\JJ	8cc\J	.	.	.	.	.	.	.	.	.	.	.	.	.	8e\	-ri-	16cc\	.	.	8b\J	.
!	!	!	!	!	!	!	!	!LO:TX:t=P:problem:kreska pseudotaktowa	!LO:TX:t=P:problem:kreska pseudotaktowa	!	!LO:TX:t=P:problem:kreska pseudotaktowa	!	!LO:TX:t=P:problem:kreska pseudotaktowa	!	!LO:TX:t=P:problem:kreska pseudotaktowa	!	!LO:TX:t=P:problem:kreska pseudotaktowa	!	!	!	!	!	!LO:TX:t=P:problem:kreska pseudotaktowa	!	!	!	!LO:TX:t=P:problem:kreska pseudotaktowa
.	.	.	.	.	.	.	.	16cc\Jk	16FF/	-ri-	16f\	-ri-	16a\	-ri-	16cc\	-ri-	16FF/	-ri-	.	.	.	.	16dd\JJ	.	.	.	16cc\Jk
=24-	=24-	=24-	=24-	=24-	=24-	=24-	=24-	=24-	=24-	=24-	=24-	=24-	=24-	=24-	=24-	=24-	=24-	=24-	=24-	=24-	=24-	=24-	=24-	=24-	=24-	=24-	=24-
!	!	!	!	!	!	!	!	!	!	!	!	!	!	!	!	!	!	!	!	!	!	!	!LO:SIC:v:t=custos b	!	!	!	!
!	!	!	!	!	!	!	!	!	!	!	!	!	!	!	!	!	!	!	!	!	!	!	!LO:LB:g=original	!	!	!	!
8GG/L	-6	8GG/L	-6	8GG/L	8d\L	8d\	8b-X\L	8b-X\L	(8GG/L	-e	(8d\L	-e	8gny\	-e	(8b-X\L	-e	(8GG/L	-e	(8B-X\L	e-	8d\	-e	8b-X\L	-lei-	8GG/L	8b-X\L	8b-X\L
*	*	*	*	*	*	*	*	*	*	*	*	*	*	*	*	*	*	*	*	*	*	*Xij	*	*	*	*	*
8AA/	.	8AA/	.	8AA/	8c\	4f\	8a\	8a\	8AA/J)	.	8c\J)	e-	4f\	Ky-	8a\J)	.	8AA/J)	e-	8c\J)	.	4f\	e-	8a\J	.	8AA/	8a\	8a\
8BB-X/	6 5	8BB-X/	6 5	8BB/	8d\	.	8g\	8g\	(8BB-X/L	e-	(8d\L	-lei-	.	.	8.g/	Ky-	(8BB-X/L	-lei-	8d\	-lei-	.	.	4g/	-ſon,	8BB/	8g\	8g\
8C/J	.	8C/J	.	8C-X/J	8c\J	8e\	8a\J	8g\J	8C/J)	.	8c\J)	.	8e\	-ri-	.	.	8C/J)	.	8c\	-ſon	8e\	-lei-	.	.	8C/J	8a\J	8g\J
!	!	!	!	!	!	!LO:LB:g=original	!	!	!	!	!LO:LB:g=original	!	!	!	!	!	!	!	!	!	!	!	!	!	!	!	!
.	.	.	.	.	.	.	.	.	.	.	.	.	.	.	16g/	-ri-	.	.	.	.	.	.	.	.	.	.	.
!LO:SIC:v:t=custos F	!	!LO:SIC:v:t=custos F	!	!	!	!	!	!	!	!	!	!	!	!	!	!	!	!	!	!	!	!	!	!	!	!	!
4F\	#	4F\	#	4FF/	4c\	4f\	4a\	4a\	4F\	-lei-	4c\	-ſon	4f\	-e	4a\	-e	4FF/	-son	4c\	.	4f\	-ſon	4a\	.	4F\	4a\	4a\
!LO:TX:t=P:problem:kreska pseudotaktowa	!	!LO:TX:t=P:problem:kreska pseudotaktowa	!	!	!LO:TX:t=P:problem:kreska pseudotaktowa	!LO:TX:t=P:problem:kreska pseudotaktowa	!	!	!	!	!	!	!	!	!	!	!	!	!	!	!LO:TX:t=P:problem:kreska pseudotaktowa	!	!	!	!LO:TX:t=P:problem:kreska pseudotaktowa	!	!
*	*	*	*	*	*	*	*	*	*	*	*	*	*	*Xij	*	*	*	*	*	*	*	*	*	*	*	*	*
!	!	!	!	!	!	!	!	!	!	!	!	!	!LO:SIC:v:t=custos e	!	!	!	!	!	!	!	!	!	!	!	!	!	!
4C#X/	.	4C#X/	.	8.C#X/L	4e\	4.e\	8.a\L	8.a\L	8.C#X/	-ſon	8.e\	/Ky-	4e\	Ky-	8.a\	Ky-	8.C#X/	Ky-	8.e\	Ky-	4.e\	Ky-	8.a\	Ky-	4C#X/	8.a\L	8.a\L
!	!	!	!	!LO:TX:t=P:problem:kreska pseudotaktowa	!	!	!LO:TX:t=P:problem:kreska pseudotaktowa	!LO:TX:t=P:problem:kreska pseudotaktowa	!LO:TX:t=P:problem:kreska pseudotaktowa	!	!LO:TX:t=P:problem:kreska pseudotaktowa	!	!	!	!LO:TX:t=P:problem:kreska pseudotaktowa	!	!LO:TX:t=P:problem:kreska pseudotaktowa	!	!LO:TX:t=P:problem:kreska pseudotaktowa	!	!	!	!LO:TX:t=P:problem:kreska pseudotaktowa	!	!	!LO:TX:t=P:problem:kreska pseudotaktowa	!LO:TX:t=P:problem:kreska pseudotaktowa
.	.	.	.	16C#X/Jk	.	.	16g\Jk	16g\Jk	16C#/	e-	16e\	-ri-	.	.	16g/	-ri-	16C#/	-ri-	16e\	-ri-	.	.	16g/	-ri-	.	16g\Jk	16g\Jk
!	!	!	!	!	!	!	!	!LO:LB:g=original	!	!	!	!	!	!	!	!	!	!	!	!	!	!	!	!	!	!	!
8D/L	-6	8D/L	-6	8D/L	4A/	.	4.f/	4.f/	8D/L	-lei-	4A/	-e	8d\	.	4f/	-e	(8D/L	-e	4A/	-e	.	.	4f/	-e	8D/L	4.f/	4.f/
8C#/	.	8C#/	.	8C#/	.	8d\	.	.	8C#/	.	.	.	8d\	-ri-	.	.	8C#/J)	.	.	.	8d\J	-ri-	.	.	8C#/	.	.
8BB-X/	6 5	8BB-X/	6 5	8BB-X/	2B-X\	2d\	.	.	8BB-X/	.	2B-X\	e-	8d\	-e	4ff\	e-	(8BB-/L	e-	4B-X\	e-	4d\	-e	8.ff\	Ky-	8BB-X/	.	.
8AA/J	.	8AA/J	-	8AA/J	.	.	8f/	8ff\	8AA/J	.	.	.	8d\	e-	.	.	8AA/J)	.	.	.	.	.	.	.	8AA/J	8f/	8ff\
.	.	.	.	.	.	.	.	.	.	.	.	.	.	.	.	.	.	.	.	.	.	.	16ff\	-ri-	.	.	.
!	!	!	!	!	!	!	!LO:TX:t=P:problem:kreska pseudotaktowa	!	!	!	!	!	!	!	!LO:TX:t=P:problem:kreska pseudotaktowa	!	!	!	!	!	!	!	!LO:TX:t=P:problem:kreska pseudotaktowa	!	!	!LO:TX:t=P:problem:kreska pseudotaktowa	!
!	!	!	!	!	!	!	!	!	!LO:SIC:v:t=custos GG	!	!	!	!	!	!	!	!	!	!	!	!	!	!	!	!	!	!
!	!	!	!	!	!	!	!	!	!	!	!	!	!	!	!	!	!LO:SIC:v:t=custos GG	!	!	!	!	!	!	!	!	!	!
4GG/	4:3	4GG/	4:3	4GG/	.	.	2e/	4.ee\	4GG/	.	.	.	4.d\	-lei-	2ee\	-lei-	4GG/	-lei-	4.B-\	-le-	4.d\	Ky-	2ee\	-e	4GG/	2e/	4.ee\
!LO:TX:t=P:problem:kreska pseudotaktowa	!	!LO:TX:t=P:problem:kreska pseudotaktowa	!	!LO:TX:t=P:problem:kreska pseudotaktowa	!LO:TX:t=P:problem:kreska pseudotaktowa	!LO:TX:t=P:problem:kreska pseudotaktowa	!	!	!LO:TX:t=P:problem:kreska pseudotaktowa	!	!LO:TX:t=P:problem:kreska pseudotaktowa	!	!	!	!	!	!LO:TX:t=P:problem:kreska pseudotaktowa	!	!	!	!	!	!	!	!LO:TX:t=P:problem:kreska pseudotaktowa	!	!
4AA/	.	4AA/	.	4AA/	4A/	4c#X/	.	.	4AA/	.	4A/	-lei-	.	.	.	.	4AA/	.	.	.	.	.	.	.	4AA/	.	.
!	!	!	!	!	!	!	!	!LO:TX:t=P:problem:kreska pseudotaktowa	!	!	!	!	!LO:TX:t=P:problem:kreska pseudotaktowa	!	!	!	!	!	!LO:TX:t=P:problem:kreska pseudotaktowa	!	!LO:TX:t=P:problem:kreska pseudotaktowa	!	!	!	!	!	!LO:TX:t=P:problem:kreska pseudotaktowa
.	.	.	.	.	.	.	.	8dd\	.	.	.	.	8c#X/	.	.	.	.	.	8A/	.	8c#X/	-ri-	.	.	.	.	8dd\
!LO:LB:g=original	!	!LO:LB:g=original	!	!	!	!	!	!	!	!	!	!	!	!	!	!	!	!	!	!	!	!	!	!	!LO:LB:g=original	!	!
=25-	=25-	=25-	=25-	=25-	=25-	=25-	=25-	=25-	=25-	=25-	=25-	=25-	=25-	=25-	=25-	=25-	=25-	=25-	=25-	=25-	=25-	=25-	=25-	=25-	=25-	=25-	=25-
2.D/	#	2.D/	#	4D/	4A/	2.d\	4d/	4dd\	4D/	-ſon	4A/	-son/	4d\	-ſon	4dd\	-ſon,	4D/	-ſon	1A	-i-	4d\	-e	2.dd\	e-	2.D/	4d/	4dd\
.	.	.	.	2D/	8.d\L	.	2dd\	8.a\L	4.D/	Ky-	(8d\	e-	8.f\	Ky-	8.a\	Ky-	8.D/	Ky-	.	.	4d\	e-	.	.	.	2dd\	8.a\L
.	.	.	.	.	.	.	.	.	.	.	16c\	.	.	.	.	.	.	.	.	.	.	.	.	.	.	.	.
.	.	.	.	.	32c\LL	.	.	16g\Jk	.	.	16Bny\)	.	16g\	-ri-	16g\	-ri-	16E\	-ri-	.	.	.	.	.	.	.	.	16g\Jk
!	!	!	!	!	!	!	!	!	!	!	!	!	!	!	!	!	!LO:LB:g=original	!	!	!	!	!	!	!	!	!	!
.	.	.	.	.	32Bny\JJJ	.	.	.	.	.	.	.	.	.	.	.	.	.	.	.	.	.	.	.	.	.	.
!	!	!	!	!	!LO:TX:t=P:problem:kreska pseudotaktowa	!	!	!LO:TX:t=P:problem:mixed beam	!	!	!LO:TX:t=P:problem:kreska pseudotaktowa	!	!	!	!	!	!	!	!	!	!	!	!	!	!	!	!LO:TX:t=P:problem:mixed beam
.	.	.	.	.	2A/	.	.	8f\L	.	.	2A/	-lei-	4a\	-e	8f/	-e	8F\	-e	.	.	4d\	-le-	.	.	.	.	8f/
.	.	.	.	.	.	.	.	8ff\J	16D/	-ri-	.	.	.	.	8f/	e-	8D/	e-	.	.	.	.	.	.	.	.	8ff\
.	.	.	.	.	.	.	.	.	16D/	-e	.	.	.	.	.	.	.	.	.	.	.	.	.	.	.	.	.
!	!	!	!	!LO:TX:t=P:problem:kreska pseudotaktowa	!	!	!	!	!	!	!	!	!	!	!	!	!LO:TX:t=P:problem:kreska pseudotaktowa	!	!	!	!	!	!	!	!	!	!
4AA/	#	4AA/	#	4AA/	.	8.e\L	4cc#X\	8.ee\L	8.AA/	e-	.	.	8A/	e-	8.e/	-le-	4A\	-lei-	.	.	4e\	-i-	4cc#X\	-lei-	4AA/	4cc#X\	8.ee\L
.	.	.	.	.	.	.	.	.	.	.	.	.	8A/	-lei-	.	.	.	.	.	.	.	.	.	.	.	.	.
!	!	!	!	!	!	!LO:TX:t=P:problem:kreska pseudotaktowa	!	!	!	!	!	!	!	!	!	!	!	!	!	!	!	!	!	!	!	!	!LO:TX:t=P:problem:kreska pseudotaktowa
.	.	.	.	.	.	16f\Jk	.	16dd\Jk	16AA/	-lei-	.	.	.	.	16e/	-i-	.	.	.	.	.	.	.	.	.	.	16dd\Jk
1D;	#	1D;	#	1D;	1A;	1f#X	1dd;	1dd;	1D;	-ſon.	1F#\	-ſon.	1A;	-ſon.	1d;	-ſon.	1D;	-ſon.	1A;	-ſon.	1f#X;	-ſon.	1dd;	-ſon.	1D;	1dd;	1dd
!	!	!LO:TX:a:t=Kyrie a t.	!	!	!	!	!	!	!	!	!	!	!	!	!	!	!	!	!	!	!	!	!	!	!	!	!
=-	=-	=-	=-	=-	=-	=-	=-	=-	=-	=-	=-	=-	=-	=-	=-	=-	=-	=-	=-	=-	=-	=-	=-	=-	=-	=-	=-
*-	*-	*-	*-	*-	*-	*-	*-	*-	*-	*-	*-	*-	*-	*-	*-	*-	*-	*-	*-	*-	*-	*-	*-	*-	*-	*-	*-
!!!system-decoration: [(s1,s2)]s3[(s4,s5,s6,s7)][(s8,s9,s10,s11)][(s12,s13)][(s14,s15)]s16,s17,s18
!!!ENC: Andrzej Gręziak
!!!END: 2022-06-05
!!!ENC: Urszula Świątek
!!!END: 2022-08-13
!!!YEC: Copyright 2022 Narodowy Instytut Fryderyka Chopina (https://polishscores.org)
!!!YEM: License CC-BY-4.0 (https://creativecommons.org/licenses/by/4.0)
